; generated by Slic3r 1.2.6-dev on 2015-01-20 at 13:28:26

; external perimeters extrusion width = 0.50mm
; perimeters extrusion width = 0.50mm
; infill extrusion width = 0.50mm
; solid infill extrusion width = 0.50mm
; top infill extrusion width = 0.50mm

; external perimeters extrusion width = 0.50mm
; perimeters extrusion width = 0.50mm
; infill extrusion width = 0.50mm
; solid infill extrusion width = 0.50mm
; top infill extrusion width = 0.50mm

; START-GCODE

; INIT
M80                                  ; activate build chamber
G4 S2                                ; wait 2 seconds
G90                                  ; use absolute coordinates
G28                                  ; home all axes
G1 F12000                            ; set move speed to suit XY-axes
G92 E0                               ; reset extrusion distance

; PREHEAT BED AND CHAMBER
M104 S70 T2                          ; set recirculating air heater to 70 degree celcius target temperature
G1 Z100                              ; move bed to chamber center for faster heating distant from air flow
M190 S100  ; set bed temperature and wait

; MOVE PRINT HEAD TO FRONT CENTER FOR PRIMING, BED UP
G1 X100 Y-20 F12000                  ; move print head in front of print bed center
G1 Z0.5 F12000                       ; move print bed to 0.5mm nozzle distance

; PRIME RIGHT EXTRUDER
T1                                   ; activate right extruder
M83                                  ; use relative distances for extrusion
M104 S260 T1 ; set right extruder temperature
G1 X105 Y-20 F12000                  ; move print head 5mm right
M109 S260 T1 ; wait for right extruder target temperature to be reached
G4 S5                                ; wait 5 seconds
G1 F30 E7.00000                      ; prime extruder 7mm
G1 F1440.000 E-1.5    ; retract extruder
G1 Y-5 F12000                        ; move print head back over printbed edge
G1 Z0.35 F12000                      ; move print bed to 0.35mm nozzle distance
G1 F1440.000 E1.5     ; compensate extruder retraction
G1 F1440.000 E0.6                    ; extrude 0.6mm for sticking primed extrusion to printbed
G4 S2                                ; wait 2 seconds
M82                                  ; use absolute distances for extrusion

; DEACTIVATE RIGHT EXTRUDER
;M104 S0 T1                           ; turn right extruder heater off
G1 Z0.5 F12000                       ; move print bed to 0.5mm nozzle distance
G1 Y0 F12000                         ; move print head back over printbed
G1 X100 F12000                       ; move print head to X center
G1 Y-20 F12000                       ; move print head in front of print bed

; PRIME LEFT EXTRUDER
T0                                   ; activate left extruder
M83                                  ; use relative distances for extrusion
M104 S260 T0 ; set left extruder temperature
G1 X95 Y-20 F12000                   ; move print head 5mm left
M109 S260 T0 ; wait for left extruder target temperature to be reached
G4 S5                                ; wait 5 seconds
G1 F30 E7.00000                      ; prime extruder 7mm
G1 F1440.000 E-1.5    ; retract extruder
G1 Y-5 F12000                        ; move print head back over printbed edge
G1 Z0.35 F12000                      ; move print bed to 0.35mm nozzle distance
G1 F1440.000 E1.5     ; compensate extruder retraction
G1 F1440.000 E0.6                    ; extrude 0.6mm for sticking primed extrusion to printbed
G4 S2                                ; wait 2 seconds
M82                                  ; use absolute distances for extrusion

; /START-GCODE
G21 ; set units to millimeters
G90 ; use absolute coordinates
M82 ; use absolute distances for extrusion
G92 E0 ; reset extrusion distance
T0 ; change extruder
G92 E0 ; reset extrusion distance
M106 S255 ; enable fan
G1 E-1.50000 F1440.00000 ; retract
G92 E0 ; reset extrusion distance
G1 Z0.500 F12000.000 ; lift Z
G1 X57.238 Y110.238 F12000.000 ; move to first perimeter point
G1 Z0.350 F12000.000 ; restore layer Z
G1 E1.50000 F1440.00000 ; unretract
G1 X67.762 Y110.238 E1.77537 F1200.000 ; perimeter
G1 X67.762 Y114.762 E1.89376 ; perimeter
G1 X57.238 Y114.762 E2.16914 ; perimeter
G1 X57.238 Y110.290 E2.28615 ; perimeter
G1 X57.238 Y109.888 F12000.000 ; move inwards before travel
G1 X57.238 Y109.762 F12000.000 ; move to first perimeter point
G1 X57.238 Y105.238 E2.40454 F1200.000 ; perimeter
G1 X67.762 Y105.238 E2.67992 ; perimeter
G1 X67.762 Y109.762 E2.79831 ; perimeter
G1 X57.290 Y109.762 E3.07231 ; perimeter
G1 X56.888 Y109.762 F12000.000 ; move inwards before travel
G1 E1.57231 F1440.00000 ; retract
G92 E0 ; reset extrusion distance
G1 Z0.850 F12000.000 ; lift Z
G1 X57.238 Y104.762 F12000.000 ; move to first perimeter point
G1 Z0.350 F12000.000 ; restore layer Z
G1 E1.50000 F1440.00000 ; unretract
G1 X57.238 Y100.238 E1.61839 F1200.000 ; perimeter
G1 X67.762 Y100.238 E1.89376 ; perimeter
G1 X67.762 Y104.762 E2.01215 ; perimeter
G1 X57.290 Y104.762 E2.28615 ; perimeter
G1 X56.888 Y104.762 F12000.000 ; move inwards before travel
G1 E0.78615 F1440.00000 ; retract
G92 E0 ; reset extrusion distance
G1 Z0.850 F12000.000 ; lift Z
G1 X57.238 Y99.762 F12000.000 ; move to first perimeter point
G1 Z0.350 F12000.000 ; restore layer Z
G1 E1.50000 F1440.00000 ; unretract
G1 X57.238 Y95.238 E1.61839 F1200.000 ; perimeter
G1 X67.762 Y95.238 E1.89376 ; perimeter
G1 X67.762 Y99.762 E2.01215 ; perimeter
G1 X57.290 Y99.762 E2.28615 ; perimeter
G1 X56.888 Y99.762 F12000.000 ; move inwards before travel
G1 E0.78615 F1440.00000 ; retract
G92 E0 ; reset extrusion distance
G1 Z0.850 F12000.000 ; lift Z
G1 X57.238 Y94.762 F12000.000 ; move to first perimeter point
G1 Z0.350 F12000.000 ; restore layer Z
G1 E1.50000 F1440.00000 ; unretract
G1 X57.238 Y90.238 E1.61839 F1200.000 ; perimeter
G1 X67.762 Y90.238 E1.89376 ; perimeter
G1 X67.762 Y94.762 E2.01215 ; perimeter
G1 X57.290 Y94.762 E2.28615 ; perimeter
G1 X56.888 Y94.762 F12000.000 ; move inwards before travel
G1 E0.78615 F1440.00000 ; retract
G92 E0 ; reset extrusion distance
G1 Z0.850 F12000.000 ; lift Z
G1 X57.238 Y89.762 F12000.000 ; move to first perimeter point
G1 Z0.350 F12000.000 ; restore layer Z
G1 E1.50000 F1440.00000 ; unretract
G1 X57.238 Y85.238 E1.61839 F1200.000 ; perimeter
G1 X67.762 Y85.238 E1.89376 ; perimeter
G1 X67.762 Y89.762 E2.01215 ; perimeter
G1 X57.290 Y89.762 E2.28615 ; perimeter
G1 X56.888 Y89.762 F12000.000 ; move inwards before travel
G1 E0.78615 F1440.00000 ; retract
G92 E0 ; reset extrusion distance
G1 Z0.850 F12000.000 ; lift Z
G1 X57.238 Y84.762 F12000.000 ; move to first perimeter point
G1 Z0.350 F12000.000 ; restore layer Z
G1 E1.50000 F1440.00000 ; unretract
G1 X57.238 Y80.238 E1.61839 F1200.000 ; perimeter
G1 X67.762 Y80.238 E1.89376 ; perimeter
G1 X67.762 Y84.762 E2.01215 ; perimeter
G1 X57.290 Y84.762 E2.28615 ; perimeter
G1 X56.888 Y84.762 F12000.000 ; move inwards before travel
G1 E0.78615 F1440.00000 ; retract
G92 E0 ; reset extrusion distance
G1 Z0.850 F12000.000 ; lift Z
G1 X57.238 Y79.762 F12000.000 ; move to first perimeter point
G1 Z0.350 F12000.000 ; restore layer Z
G1 E1.50000 F1440.00000 ; unretract
G1 X57.238 Y75.238 E1.61839 F1200.000 ; perimeter
G1 X67.762 Y75.238 E1.89376 ; perimeter
G1 X67.762 Y79.762 E2.01215 ; perimeter
G1 X57.290 Y79.762 E2.28615 ; perimeter
G1 X56.888 Y79.762 F12000.000 ; move inwards before travel
G1 E0.78615 F1440.00000 ; retract
G92 E0 ; reset extrusion distance
G1 Z0.850 F12000.000 ; lift Z
G1 X57.238 Y74.762 F12000.000 ; move to first perimeter point
G1 Z0.350 F12000.000 ; restore layer Z
G1 E1.50000 F1440.00000 ; unretract
G1 X57.238 Y70.238 E1.61839 F1200.000 ; perimeter
G1 X67.762 Y70.238 E1.89376 ; perimeter
G1 X67.762 Y74.762 E2.01215 ; perimeter
G1 X57.290 Y74.762 E2.28615 ; perimeter
G1 X56.888 Y74.762 F12000.000 ; move inwards before travel
G1 E0.78615 F1440.00000 ; retract
G92 E0 ; reset extrusion distance
G1 Z0.850 F12000.000 ; lift Z
G1 X57.238 Y69.762 F12000.000 ; move to first perimeter point
G1 Z0.350 F12000.000 ; restore layer Z
G1 E1.50000 F1440.00000 ; unretract
G1 X57.238 Y65.238 E1.61839 F1200.000 ; perimeter
G1 X67.762 Y65.238 E1.89376 ; perimeter
G1 X67.762 Y69.762 E2.01215 ; perimeter
G1 X57.290 Y69.762 E2.28615 ; perimeter
G1 X56.888 Y69.762 F12000.000 ; move inwards before travel
G1 E0.78615 F1440.00000 ; retract
G92 E0 ; reset extrusion distance
G1 Z0.850 F12000.000 ; lift Z
G1 X56.788 Y55.712 F12000.000 ; move to first perimeter point
G1 Z0.350 F12000.000 ; restore layer Z
G1 E1.50000 F1440.00000 ; unretract
G1 X56.788 Y124.288 E3.29419 F1200.000 ; perimeter
G1 X43.212 Y124.288 E3.64936 ; perimeter
G1 X43.212 Y55.712 E5.44355 ; perimeter
G1 X56.735 Y55.712 E5.79736 ; perimeter
G1 E4.29736 F1440.00000 ; retract
G92 E0 ; reset extrusion distance
G1 Z0.850 F12000.000 ; lift Z
G1 X68.212 Y55.712 F12000.000 ; move to first perimeter point
G1 Z0.350 F12000.000 ; restore layer Z
G1 E1.50000 F1440.00000 ; unretract
G1 X81.788 Y55.712 E1.85518 F1200.000 ; perimeter
G1 X81.788 Y124.288 E3.64936 ; perimeter
G1 X68.212 Y124.288 E4.00454 ; perimeter
G1 X68.212 Y55.765 E5.79736 ; perimeter
G1 E4.29736 F1440.00000 ; retract
G92 E0 ; reset extrusion distance
G1 Z0.850 F12000.000 ; lift Z
G1 X67.762 Y64.762 F12000.000 ; move to first perimeter point
G1 Z0.350 F12000.000 ; restore layer Z
G1 E1.50000 F1440.00000 ; unretract
G1 X67.762 Y55.262 E1.74856 F1200.000 ; perimeter
G1 X82.238 Y55.262 E2.12728 ; perimeter
G1 X82.238 Y124.738 E3.94500 ; perimeter
G1 X67.762 Y124.738 E4.32372 ; perimeter
G1 X67.762 Y115.238 E4.57228 ; perimeter
G1 X57.238 Y115.238 E4.84765 ; perimeter
G1 X57.238 Y124.738 E5.09621 ; perimeter
G1 X42.762 Y124.738 E5.47493 ; perimeter
G1 X42.762 Y55.262 E7.29266 ; perimeter
G1 X57.238 Y55.262 E7.67138 ; perimeter
G1 X57.238 Y64.762 E7.91993 ; perimeter
G1 X67.710 Y64.762 E8.19393 ; perimeter
G1 X68.112 Y64.762 F12000.000 ; move inwards before travel
G1 E6.69393 F1440.00000 ; retract
G92 E0 ; reset extrusion distance
G1 Z0.850 F12000.000 ; lift Z
G1 X56.540 Y56.162 F12000.000 ; move to first infill point
G1 Z0.350 F12000.000 ; restore layer Z
G1 E1.50000 F1440.00000 ; unretract
G1 X43.460 Y56.162 E1.84321 F1200.000 ; infill
G1 X43.460 Y56.613 E1.85505 ; infill
G1 X56.540 Y56.613 E2.19825 ; infill
G1 X56.540 Y57.065 E2.21009 ; infill
G1 X43.460 Y57.065 E2.55330 ; infill
G1 X43.460 Y57.516 E2.56514 ; infill
G1 X56.540 Y57.516 E2.90834 ; infill
G1 X56.540 Y57.967 E2.92018 ; infill
G1 X43.460 Y57.967 E3.26339 ; infill
G1 X43.460 Y58.418 E3.27523 ; infill
G1 X56.540 Y58.418 E3.61843 ; infill
G1 X56.540 Y58.869 E3.63027 ; infill
G1 X43.460 Y58.869 E3.97348 ; infill
G1 X43.460 Y59.320 E3.98532 ; infill
G1 X56.540 Y59.320 E4.32853 ; infill
G1 X56.540 Y59.772 E4.34036 ; infill
G1 X43.460 Y59.772 E4.68357 ; infill
G1 X43.460 Y60.223 E4.69541 ; infill
G1 X56.540 Y60.223 E5.03862 ; infill
G1 X56.540 Y60.674 E5.05045 ; infill
G1 X43.460 Y60.674 E5.39366 ; infill
G1 X43.460 Y61.125 E5.40550 ; infill
G1 X56.540 Y61.125 E5.74871 ; infill
G1 X56.540 Y61.576 E5.76055 ; infill
G1 X43.460 Y61.576 E6.10375 ; infill
G1 X43.460 Y62.027 E6.11559 ; infill
G1 X56.540 Y62.027 E6.45880 ; infill
G1 X56.540 Y62.479 E6.47064 ; infill
G1 X43.460 Y62.479 E6.81384 ; infill
G1 X43.460 Y62.930 E6.82568 ; infill
G1 X56.540 Y62.930 E7.16889 ; infill
G1 X56.540 Y63.381 E7.18073 ; infill
G1 X43.460 Y63.381 E7.52394 ; infill
G1 X43.460 Y63.832 E7.53577 ; infill
G1 X56.540 Y63.832 E7.87898 ; infill
G1 X56.540 Y64.283 E7.89082 ; infill
G1 X43.460 Y64.283 E8.23403 ; infill
G1 X43.460 Y64.734 E8.24586 ; infill
G1 X56.540 Y64.734 E8.58907 ; infill
G1 X56.540 Y65.186 E8.60091 ; infill
G1 X43.460 Y65.186 E8.94412 ; infill
G1 X43.460 Y65.637 E8.95596 ; infill
G1 X56.540 Y65.637 E9.29916 ; infill
G1 X56.540 Y66.088 E9.31100 ; infill
G1 X43.460 Y66.088 E9.65421 ; infill
G1 X43.460 Y66.539 E9.66605 ; infill
G1 X56.540 Y66.539 E10.00925 ; infill
G1 X56.540 Y66.990 E10.02109 ; infill
G1 X43.460 Y66.990 E10.36430 ; infill
G1 X43.460 Y67.441 E10.37614 ; infill
G1 X56.540 Y67.441 E10.71934 ; infill
G1 X56.540 Y67.893 E10.73118 ; infill
G1 X43.460 Y67.893 E11.07439 ; infill
G1 X43.460 Y68.344 E11.08623 ; infill
G1 X56.540 Y68.344 E11.42944 ; infill
G1 X56.540 Y68.795 E11.44127 ; infill
G1 X43.460 Y68.795 E11.78448 ; infill
G1 X43.460 Y69.246 E11.79632 ; infill
G1 X56.540 Y69.246 E12.13953 ; infill
G1 X56.540 Y69.697 E12.15136 ; infill
G1 X43.460 Y69.697 E12.49457 ; infill
G1 X43.460 Y70.149 E12.50641 ; infill
G1 X56.540 Y70.149 E12.84962 ; infill
G1 X56.540 Y70.600 E12.86146 ; infill
G1 X43.460 Y70.600 E13.20466 ; infill
G1 X43.460 Y71.051 E13.21650 ; infill
G1 X56.540 Y71.051 E13.55971 ; infill
G1 X56.540 Y71.502 E13.57155 ; infill
G1 X43.460 Y71.502 E13.91475 ; infill
G1 X43.460 Y71.953 E13.92659 ; infill
G1 X56.540 Y71.953 E14.26980 ; infill
G1 X56.540 Y72.404 E14.28164 ; infill
G1 X43.460 Y72.404 E14.62485 ; infill
G1 X43.460 Y72.856 E14.63668 ; infill
G1 X56.540 Y72.856 E14.97989 ; infill
G1 X56.540 Y73.307 E14.99173 ; infill
G1 X43.460 Y73.307 E15.33494 ; infill
G1 X43.460 Y73.758 E15.34677 ; infill
G1 X56.540 Y73.758 E15.68998 ; infill
G1 X56.540 Y74.209 E15.70182 ; infill
G1 X43.460 Y74.209 E16.04503 ; infill
G1 X43.460 Y74.660 E16.05687 ; infill
G1 X56.540 Y74.660 E16.40007 ; infill
G1 X56.540 Y75.111 E16.41191 ; infill
G1 X43.460 Y75.111 E16.75512 ; infill
G1 X43.460 Y75.563 E16.76696 ; infill
G1 X56.540 Y75.563 E17.11016 ; infill
G1 X56.540 Y76.014 E17.12200 ; infill
G1 X43.460 Y76.014 E17.46521 ; infill
G1 X43.460 Y76.465 E17.47705 ; infill
G1 X56.540 Y76.465 E17.82025 ; infill
G1 X56.540 Y76.916 E17.83209 ; infill
G1 X43.460 Y76.916 E18.17530 ; infill
G1 X43.460 Y77.367 E18.18714 ; infill
G1 X56.540 Y77.367 E18.53035 ; infill
G1 X56.540 Y77.818 E18.54218 ; infill
G1 X43.460 Y77.818 E18.88539 ; infill
G1 X43.460 Y78.270 E18.89723 ; infill
G1 X56.540 Y78.270 E19.24044 ; infill
G1 X56.540 Y78.721 E19.25227 ; infill
G1 X43.460 Y78.721 E19.59548 ; infill
G1 X43.460 Y79.172 E19.60732 ; infill
G1 X56.540 Y79.172 E19.95053 ; infill
G1 X56.540 Y79.623 E19.96237 ; infill
G1 X43.460 Y79.623 E20.30557 ; infill
G1 X43.460 Y80.074 E20.31741 ; infill
G1 X56.540 Y80.074 E20.66062 ; infill
G1 X56.540 Y80.525 E20.67246 ; infill
G1 X43.460 Y80.525 E21.01566 ; infill
G1 X43.460 Y80.977 E21.02750 ; infill
G1 X56.540 Y80.977 E21.37071 ; infill
G1 X56.540 Y81.428 E21.38255 ; infill
G1 X43.460 Y81.428 E21.72575 ; infill
G1 X43.460 Y81.879 E21.73759 ; infill
G1 X56.540 Y81.879 E22.08080 ; infill
G1 X56.540 Y82.330 E22.09264 ; infill
G1 X43.460 Y82.330 E22.43585 ; infill
G1 X43.460 Y82.781 E22.44768 ; infill
G1 X56.540 Y82.781 E22.79089 ; infill
G1 X56.540 Y83.232 E22.80273 ; infill
G1 X43.460 Y83.232 E23.14594 ; infill
G1 X43.460 Y83.684 E23.15777 ; infill
G1 X56.540 Y83.684 E23.50098 ; infill
G1 X56.540 Y84.135 E23.51282 ; infill
G1 X43.460 Y84.135 E23.85603 ; infill
G1 X43.460 Y84.586 E23.86787 ; infill
G1 X56.540 Y84.586 E24.21107 ; infill
G1 X56.540 Y85.037 E24.22291 ; infill
G1 X43.460 Y85.037 E24.56612 ; infill
G1 X43.460 Y85.488 E24.57796 ; infill
G1 X56.540 Y85.488 E24.92116 ; infill
G1 X56.540 Y85.939 E24.93300 ; infill
G1 X43.460 Y85.939 E25.27621 ; infill
G1 X43.460 Y86.391 E25.28805 ; infill
G1 X56.540 Y86.391 E25.63126 ; infill
G1 X56.540 Y86.842 E25.64309 ; infill
G1 X43.460 Y86.842 E25.98630 ; infill
G1 X43.460 Y87.293 E25.99814 ; infill
G1 X56.540 Y87.293 E26.34135 ; infill
G1 X56.540 Y87.744 E26.35318 ; infill
G1 X43.460 Y87.744 E26.69639 ; infill
G1 X43.460 Y88.195 E26.70823 ; infill
G1 X56.540 Y88.195 E27.05144 ; infill
G1 X56.540 Y88.647 E27.06328 ; infill
G1 X43.460 Y88.647 E27.40648 ; infill
G1 X43.460 Y89.098 E27.41832 ; infill
G1 X56.540 Y89.098 E27.76153 ; infill
G1 X56.540 Y89.549 E27.77337 ; infill
G1 X43.460 Y89.549 E28.11657 ; infill
G1 X43.460 Y90.000 E28.12841 ; infill
G1 X56.540 Y90.000 E28.47162 ; infill
G1 X56.540 Y90.451 E28.48346 ; infill
G1 X43.460 Y90.451 E28.82666 ; infill
G1 X43.460 Y90.902 E28.83850 ; infill
