; generated by Slic3r 1.1.7 on 2014-09-12 at 10:45:00

; perimeters extrusion width = 0.50mm
; infill extrusion width = 0.50mm
; solid infill extrusion width = 0.50mm
; top infill extrusion width = 0.50mm

G21 ; set units to millimeters
; START-GCODE

; INIT
M80                                  ; activate build chamber
G4 S2                                ; wait 2 seconds
G90                                  ; use absolute coordinates
G28                                  ; home all axes
G1 F12000                            ; set move speed to suit XY-axes
G92 E0                               ; reset extrusion distance
M107                                 ; disable fan

; PREHEAT BED AND CHAMBER
M104 S70 T2                          ; set recirculating air heater to 70 degree celcius target temperature
G1 Z100                              ; move bed to chamber center for faster heating distant from air flow
M190 S100  ; set bed temperature and wait

; MOVE PRINT HEAD TO FRONT CENTER FOR PRIMING, BED UP
G1 X100 Y-20 F12000                  ; move print head in front of print bed center
G1 Z0.5 F12000                       ; move print bed to 0.5mm nozzle distance

; PRIME RIGHT EXTRUDER
T1                                   ; activate right extruder
M83                                  ; use relative distances for extrusion
M104 S265 T1 ; set right extruder temperature
G1 X105 Y-20 F12000                  ; move print head 5mm right
M109 S265 T1 ; wait for right extruder target temperature to be reached
G4 S10                                ; wait 10 seconds
G1 F30 E7.00000                      ; prime extruder 7mm
G1 F1440.000 E-1.5    ; retract extruder
G1 Y-5 F12000                        ; move print head back over printbed edge
G1 Z0.35 F12000                      ; move print bed to 0.35mm nozzle distance
G1 F1440.000 E1.5     ; compensate extruder retraction
G1 F1440.000 E0.6                    ; extrude 0.6mm for sticking primed extrusion to printbed
G4 S2                                ; wait 2 seconds
M82                                  ; use absolute distances for extrusion

; /START-GCODE
G90 ; use absolute coordinates
G92 E0 ; reset extrusion distance
M82 ; use absolute distances for extrusion
G1 F1440.000 E-1.50000 ; retract
G1 Z0.850 F12000.000 ; move to next layer (0) and lift
G92 E0 ; reset extrusion distance
G1 X79.158 Y90.000 F12000.000 ; move to first perimeter point
G1 Z0.350 F12000.000 ; restore layer Z
G1 E1.50000 F1440.000 ; compensate retraction
G1 X100.000 Y69.158 E2.28826 F1200.000 ; perimeter
G1 X120.842 Y90.000 E3.07651 ; perimeter
G1 X100.000 Y110.842 E3.86477 ; perimeter
G1 X79.195 Y90.037 E4.65162 ; perimeter
G1 F1440.000 E3.15162 ; retract
G1 Z0.850 F12000.000 ; lift plate during travel
G92 E0 ; reset extrusion distance
G1 X99.972 Y110.342 F12000.000 ; move to first fill point
G1 Z0.350 F12000.000 ; restore layer Z
G1 E1.50000 F1440.000 ; compensate retraction
G1 X100.028 Y110.342 E1.50151 F1200.000 ; fill
G1 X100.518 Y109.852 E1.52005 ; fill
G1 X99.482 Y109.852 E1.54778 ; fill
G1 X98.991 Y109.362 E1.56632 ; fill
G1 X101.009 Y109.362 E1.62027 ; fill
G1 X101.499 Y108.872 E1.63881 ; fill
G1 X98.501 Y108.872 E1.71897 ; fill
G1 X98.011 Y108.382 E1.73751 ; fill
G1 X101.989 Y108.382 E1.84390 ; fill
G1 X102.479 Y107.891 E1.86243 ; fill
G1 X97.521 Y107.891 E1.99504 ; fill
G1 X97.031 Y107.401 E2.01357 ; fill
G1 X102.969 Y107.401 E2.17239 ; fill
G1 X103.460 Y106.911 E2.19093 ; fill
G1 X96.540 Y106.911 E2.37597 ; fill
G1 X96.050 Y106.421 E2.39451 ; fill
G1 X103.950 Y106.421 E2.60576 ; fill
G1 X104.440 Y105.931 E2.62430 ; fill
G1 X95.560 Y105.931 E2.86177 ; fill
G1 X95.070 Y105.440 E2.88031 ; fill
G1 X104.930 Y105.440 E3.14400 ; fill
G1 X105.420 Y104.950 E3.16254 ; fill
G1 X94.580 Y104.950 E3.45245 ; fill
G1 X94.090 Y104.460 E3.47098 ; fill
G1 X105.910 Y104.460 E3.78711 ; fill
G1 X106.401 Y103.970 E3.80565 ; fill
G1 X93.599 Y103.970 E4.14799 ; fill
G1 X93.109 Y103.480 E4.16653 ; fill
G1 X106.891 Y103.480 E4.53509 ; fill
G1 X107.381 Y102.990 E4.55363 ; fill
G1 X92.619 Y102.990 E4.94840 ; fill
G1 X92.129 Y102.499 E4.96694 ; fill
G1 X107.871 Y102.499 E5.38794 ; fill
G1 X108.361 Y102.009 E5.40648 ; fill
G1 X91.639 Y102.009 E5.85369 ; fill
G1 X91.149 Y101.519 E5.87223 ; fill
G1 X108.851 Y101.519 E6.34566 ; fill
G1 X109.342 Y101.029 E6.36420 ; fill
G1 X90.658 Y101.029 E6.86385 ; fill
G1 X90.168 Y100.539 E6.88239 ; fill
G1 X109.832 Y100.539 E7.40825 ; fill
G1 X110.322 Y100.049 E7.42679 ; fill
G1 X89.678 Y100.049 E7.97887 ; fill
G1 X89.188 Y99.558 E7.99741 ; fill
G1 X110.812 Y99.558 E8.57571 ; fill
G1 X111.302 Y99.068 E8.59425 ; fill
G1 X88.698 Y99.068 E9.19877 ; fill
G1 X88.208 Y98.578 E9.21731 ; fill
G1 X111.792 Y98.578 E9.84805 ; fill
G1 X112.283 Y98.088 E9.86658 ; fill
G1 X87.717 Y98.088 E10.52354 ; fill
G1 X87.227 Y97.598 E10.54208 ; fill
G1 X112.773 Y97.598 E11.22525 ; fill
G1 X113.263 Y97.108 E11.24379 ; fill
G1 X86.737 Y97.108 E11.95318 ; fill
G1 X86.247 Y96.617 E11.97172 ; fill
G1 X113.753 Y96.617 E12.70732 ; fill
G1 X114.243 Y96.127 E12.72586 ; fill
G1 X85.757 Y96.127 E13.48769 ; fill
G1 X85.267 Y95.637 E13.50623 ; fill
G1 X114.734 Y95.637 E14.29427 ; fill
G1 X115.224 Y95.147 E14.31281 ; fill
G1 X84.776 Y95.147 E15.12707 ; fill
G1 X84.286 Y94.657 E15.14561 ; fill
G1 X115.714 Y94.657 E15.98608 ; fill
G1 X116.204 Y94.166 E16.00462 ; fill
G1 X83.796 Y94.166 E16.87132 ; fill
G1 X83.306 Y93.676 E16.88986 ; fill
G1 X116.694 Y93.676 E17.78277 ; fill
G1 X117.184 Y93.186 E17.80131 ; fill
G1 X82.816 Y93.186 E18.72044 ; fill
G1 X82.325 Y92.696 E18.73898 ; fill
G1 X117.675 Y92.696 E19.68433 ; fill
G1 X118.165 Y92.206 E19.70286 ; fill
G1 X81.835 Y92.206 E20.67443 ; fill
G1 X81.345 Y91.716 E20.69297 ; fill
G1 X118.655 Y91.716 E21.69075 ; fill
G1 X119.145 Y91.225 E21.70929 ; fill
G1 X80.855 Y91.225 E22.73329 ; fill
G1 X80.365 Y90.735 E22.75183 ; fill
G1 X119.635 Y90.735 E23.80205 ; fill
G1 X120.125 Y90.245 E23.82059 ; fill
G1 X79.875 Y90.245 E24.89703 ; fill
G1 X79.875 Y89.755 E24.91014 ; fill
G1 X120.125 Y89.755 E25.98657 ; fill
G1 X119.635 Y89.265 E26.00511 ; fill
G1 X80.365 Y89.265 E27.05533 ; fill
G1 X80.855 Y88.775 E27.07387 ; fill
G1 X119.145 Y88.775 E28.09787 ; fill
G1 X118.655 Y88.284 E28.11641 ; fill
G1 X81.345 Y88.284 E29.11419 ; fill
G1 X81.835 Y87.794 E29.13273 ; fill
G1 X118.165 Y87.794 E30.10430 ; fill
G1 X117.675 Y87.304 E30.12284 ; fill
G1 X82.325 Y87.304 E31.06819 ; fill
G1 X82.816 Y86.814 E31.08673 ; fill
G1 X117.184 Y86.814 E32.00586 ; fill
G1 X116.694 Y86.324 E32.02440 ; fill
G1 X83.306 Y86.324 E32.91731 ; fill
G1 X83.796 Y85.834 E32.93585 ; fill
G1 X116.204 Y85.834 E33.80254 ; fill
G1 X115.714 Y85.343 E33.82108 ; fill
G1 X84.286 Y85.343 E34.66156 ; fill
G1 X84.776 Y84.853 E34.68010 ; fill
G1 X115.224 Y84.853 E35.49436 ; fill
G1 X114.734 Y84.363 E35.51290 ; fill
G1 X85.266 Y84.363 E36.30094 ; fill
G1 X85.757 Y83.873 E36.31948 ; fill
G1 X114.243 Y83.873 E37.08131 ; fill
G1 X113.753 Y83.383 E37.09984 ; fill
G1 X86.247 Y83.383 E37.83545 ; fill
G1 X86.737 Y82.892 E37.85399 ; fill
G1 X113.263 Y82.892 E38.56338 ; fill
G1 X112.773 Y82.402 E38.58192 ; fill
G1 X87.227 Y82.402 E39.26509 ; fill
G1 X87.717 Y81.912 E39.28363 ; fill
G1 X112.283 Y81.912 E39.94058 ; fill
G1 X111.792 Y81.422 E39.95912 ; fill
G1 X88.208 Y81.422 E40.58986 ; fill
G1 X88.698 Y80.932 E40.60840 ; fill
G1 X111.302 Y80.932 E41.21292 ; fill
G1 X110.812 Y80.442 E41.23146 ; fill
G1 X89.188 Y80.442 E41.80976 ; fill
G1 X89.678 Y79.951 E41.82830 ; fill
G1 X110.322 Y79.951 E42.38038 ; fill
G1 X109.832 Y79.461 E42.39892 ; fill
G1 X90.168 Y79.461 E42.92479 ; fill
G1 X90.658 Y78.971 E42.94332 ; fill
G1 X109.342 Y78.971 E43.44297 ; fill
G1 X108.851 Y78.481 E43.46151 ; fill
G1 X91.149 Y78.481 E43.93494 ; fill
G1 X91.639 Y77.991 E43.95348 ; fill
G1 X108.361 Y77.991 E44.40069 ; fill
G1 X107.871 Y77.501 E44.41923 ; fill
G1 X92.129 Y77.501 E44.84023 ; fill
G1 X92.619 Y77.010 E44.85877 ; fill
G1 X107.381 Y77.010 E45.25354 ; fill
G1 X106.891 Y76.520 E45.27208 ; fill
G1 X93.109 Y76.520 E45.64064 ; fill
G1 X93.599 Y76.030 E45.65918 ; fill
G1 X106.401 Y76.030 E46.00153 ; fill
G1 X105.910 Y75.540 E46.02006 ; fill
G1 X94.090 Y75.540 E46.33619 ; fill
G1 X94.580 Y75.050 E46.35473 ; fill
G1 X105.420 Y75.050 E46.64463 ; fill
G1 X104.930 Y74.560 E46.66317 ; fill
G1 X95.070 Y74.560 E46.92686 ; fill
G1 X95.560 Y74.069 E46.94540 ; fill
G1 X104.440 Y74.069 E47.18287 ; fill
G1 X103.950 Y73.579 E47.20141 ; fill
G1 X96.050 Y73.579 E47.41267 ; fill
G1 X96.540 Y73.089 E47.43120 ; fill
G1 X103.460 Y73.089 E47.61624 ; fill
G1 X102.969 Y72.599 E47.63478 ; fill
G1 X97.031 Y72.599 E47.79360 ; fill
G1 X97.521 Y72.109 E47.81214 ; fill
G1 X102.479 Y72.109 E47.94474 ; fill
G1 X101.989 Y71.618 E47.96328 ; fill
G1 X98.011 Y71.618 E48.06966 ; fill
G1 X98.501 Y71.128 E48.08820 ; fill
G1 X101.499 Y71.128 E48.16837 ; fill
G1 X101.009 Y70.638 E48.18690 ; fill
G1 X98.991 Y70.638 E48.24085 ; fill
G1 X99.482 Y70.148 E48.25939 ; fill
G1 X100.518 Y70.148 E48.28712 ; fill
G1 X100.028 Y69.658 E48.30566 ; fill
G1 X99.972 Y69.658 E48.30717 ; fill
G1 F1440.000 E46.80717 ; retract
G1 Z1.200 F12000.000 ; move to next layer (1) and lift
G92 E0 ; reset extrusion distance
G1 X79.140 Y90.000 F12000.000 ; move to first perimeter point
G1 Z0.700 F12000.000 ; restore layer Z
G1 E1.50000 F1440.000 ; compensate retraction
G1 X100.000 Y69.140 E2.25715 F1200.000 ; perimeter
G1 X120.860 Y90.000 E3.01429 ; perimeter
G1 X100.000 Y110.860 E3.77144 ; perimeter
G1 X79.177 Y90.037 E4.52724 ; perimeter
G1 X79.620 Y89.972 F12000.000 ; move to first fill point
G1 X79.620 Y90.028 E4.52869 F1200.000 ; fill
G1 X80.088 Y90.497 E4.54569 ; fill
G1 X80.088 Y89.503 E4.57119 ; fill
G1 X80.557 Y89.035 E4.58820 ; fill
G1 X80.557 Y90.965 E4.63775 ; fill
G1 X81.025 Y91.434 E4.65476 ; fill
G1 X81.025 Y88.566 E4.72836 ; fill
G1 X81.494 Y88.098 E4.74536 ; fill
G1 X81.494 Y91.902 E4.84301 ; fill
G1 X81.963 Y92.371 E4.86002 ; fill
G1 X81.963 Y87.629 E4.98171 ; fill
G1 X82.431 Y87.161 E4.99872 ; fill
G1 X82.431 Y92.839 E5.14447 ; fill
G1 X82.900 Y93.308 E5.16147 ; fill
G1 X82.900 Y86.692 E5.33127 ; fill
G1 X83.368 Y86.224 E5.34828 ; fill
G1 X83.368 Y93.776 E5.54212 ; fill
G1 X83.837 Y94.245 E5.55913 ; fill
G1 X83.837 Y85.755 E5.77702 ; fill
G1 X84.305 Y85.287 E5.79403 ; fill
G1 X84.305 Y94.713 E6.03598 ; fill
G1 X84.774 Y95.182 E6.05298 ; fill
G1 X84.774 Y84.818 E6.31898 ; fill
G1 X85.242 Y84.350 E6.33598 ; fill
G1 X85.242 Y95.650 E6.62603 ; fill
G1 X85.711 Y96.119 E6.64303 ; fill
G1 X85.711 Y83.881 E6.95712 ; fill
G1 X86.179 Y83.413 E6.97413 ; fill
G1 X86.179 Y96.587 E7.31227 ; fill
G1 X86.648 Y97.056 E7.32928 ; fill
G1 X86.648 Y82.944 E7.69147 ; fill
G1 X87.116 Y82.476 E7.70848 ; fill
G1 X87.116 Y97.524 E8.09472 ; fill
G1 X87.585 Y97.993 E8.11172 ; fill
G1 X87.585 Y82.007 E8.52201 ; fill
G1 X88.053 Y81.539 E8.53902 ; fill
G1 X88.053 Y98.461 E8.97336 ; fill
G1 X88.522 Y98.930 E8.99036 ; fill
G1 X88.522 Y81.070 E9.44875 ; fill
G1 X88.990 Y80.602 E9.46576 ; fill
G1 X88.990 Y99.398 E9.94820 ; fill
G1 X89.459 Y99.867 E9.96520 ; fill
G1 X89.459 Y80.133 E10.47169 ; fill
G1 X89.927 Y79.665 E10.48870 ; fill
G1 X89.927 Y100.335 E11.01923 ; fill
G1 X90.396 Y100.804 E11.03624 ; fill
G1 X90.396 Y79.196 E11.59083 ; fill
G1 X90.864 Y78.728 E11.60783 ; fill
G1 X90.864 Y101.272 E12.18647 ; fill
G1 X91.333 Y101.741 E12.20347 ; fill
G1 X91.333 Y78.259 E12.80616 ; fill
G1 X91.801 Y77.791 E12.82317 ; fill
G1 X91.801 Y102.209 E13.44990 ; fill
G1 X92.270 Y102.678 E13.46691 ; fill
G1 X92.270 Y77.322 E14.11769 ; fill
G1 X92.738 Y76.854 E14.13470 ; fill
G1 X92.738 Y103.146 E14.80953 ; fill
G1 X93.207 Y103.615 E14.82653 ; fill
G1 X93.207 Y76.385 E15.52542 ; fill
G1 X93.675 Y75.917 E15.54242 ; fill
G1 X93.675 Y104.083 E16.26536 ; fill
G1 X94.144 Y104.552 E16.28236 ; fill
G1 X94.144 Y75.448 E17.02934 ; fill
G1 X94.612 Y74.980 E17.04635 ; fill
G1 X94.612 Y105.020 E17.81738 ; fill
G1 X95.081 Y105.489 E17.83438 ; fill
G1 X95.081 Y74.511 E18.62946 ; fill
G1 X95.549 Y74.042 E18.64647 ; fill
G1 X95.549 Y105.958 E19.46560 ; fill
G1 X96.018 Y106.426 E19.48261 ; fill
G1 X96.018 Y73.574 E20.32578 ; fill
G1 X96.486 Y73.105 E20.34279 ; fill
G1 X96.486 Y106.895 E21.21002 ; fill
G1 X96.955 Y107.363 E21.22702 ; fill
G1 X96.955 Y72.637 E22.11830 ; fill
G1 X97.423 Y72.168 E22.13531 ; fill
G1 X97.423 Y107.832 E23.05063 ; fill
G1 X97.892 Y108.300 E23.06764 ; fill
G1 X97.892 Y71.700 E24.00702 ; fill
G1 X98.360 Y71.231 E24.02402 ; fill
G1 X98.360 Y108.769 E24.98745 ; fill
G1 X98.829 Y109.237 E25.00445 ; fill
G1 X98.829 Y70.763 E25.99193 ; fill
G1 X99.297 Y70.294 E26.00893 ; fill
G1 X99.297 Y109.706 E27.02046 ; fill
G1 X99.766 Y110.174 E27.03746 ; fill
G1 X99.766 Y69.826 E28.07304 ; fill
G1 X100.234 Y69.826 E28.08506 ; fill
G1 X100.234 Y110.174 E29.12064 ; fill
G1 X100.703 Y109.706 E29.13764 ; fill
G1 X100.703 Y70.294 E30.14916 ; fill
G1 X101.171 Y70.763 E30.16617 ; fill
G1 X101.171 Y109.237 E31.15364 ; fill
G1 X101.640 Y108.769 E31.17065 ; fill
G1 X101.640 Y71.231 E32.13408 ; fill
G1 X102.108 Y71.700 E32.15108 ; fill
G1 X102.108 Y108.300 E33.09046 ; fill
G1 X102.577 Y107.832 E33.10746 ; fill
G1 X102.577 Y72.168 E34.02279 ; fill
G1 X103.045 Y72.637 E34.03979 ; fill
G1 X103.045 Y107.363 E34.93107 ; fill
G1 X103.514 Y106.895 E34.94808 ; fill
G1 X103.514 Y73.105 E35.81531 ; fill
G1 X103.982 Y73.574 E35.83231 ; fill
G1 X103.982 Y106.426 E36.67549 ; fill
G1 X104.451 Y105.958 E36.69249 ; fill
G1 X104.451 Y74.043 E37.51162 ; fill
G1 X104.919 Y74.511 E37.52863 ; fill
G1 X104.919 Y105.489 E38.32371 ; fill
G1 X105.388 Y105.020 E38.34072 ; fill
G1 X105.388 Y74.980 E39.11175 ; fill
G1 X105.856 Y75.448 E39.12875 ; fill
G1 X105.856 Y104.552 E39.87573 ; fill
G1 X106.325 Y104.083 E39.89274 ; fill
G1 X106.325 Y75.917 E40.61567 ; fill
G1 X106.793 Y76.385 E40.63268 ; fill
G1 X106.793 Y103.615 E41.33156 ; fill
G1 X107.262 Y103.146 E41.34856 ; fill
G1 X107.262 Y76.854 E42.02340 ; fill
G1 X107.730 Y77.322 E42.04040 ; fill
G1 X107.730 Y102.678 E42.69119 ; fill
G1 X108.199 Y102.209 E42.70819 ; fill
G1 X108.199 Y77.791 E43.33493 ; fill
G1 X108.667 Y78.259 E43.35193 ; fill
G1 X108.667 Y101.741 E43.95462 ; fill
G1 X109.136 Y101.272 E43.97162 ; fill
G1 X109.136 Y78.728 E44.55026 ; fill
G1 X109.604 Y79.196 E44.56726 ; fill
G1 X109.604 Y100.804 E45.12185 ; fill
G1 X110.073 Y100.335 E45.13886 ; fill
G1 X110.073 Y79.665 E45.66939 ; fill
G1 X110.541 Y80.133 E45.68640 ; fill
G1 X110.541 Y99.867 E46.19289 ; fill
G1 X111.010 Y99.398 E46.20989 ; fill
G1 X111.010 Y80.602 E46.69233 ; fill
G1 X111.478 Y81.070 E46.70934 ; fill
G1 X111.478 Y98.930 E47.16773 ; fill
G1 X111.947 Y98.461 E47.18473 ; fill
G1 X111.947 Y81.539 E47.61907 ; fill
G1 X112.415 Y82.007 E47.63608 ; fill
G1 X112.415 Y97.993 E48.04637 ; fill
G1 X112.884 Y97.524 E48.06337 ; fill
G1 X112.884 Y82.476 E48.44961 ; fill
G1 X113.352 Y82.944 E48.46662 ; fill
G1 X113.352 Y97.056 E48.82881 ; fill
G1 X113.821 Y96.587 E48.84582 ; fill
G1 X113.821 Y83.413 E49.18396 ; fill
G1 X114.289 Y83.881 E49.20096 ; fill
G1 X114.289 Y96.119 E49.51506 ; fill
G1 X114.758 Y95.650 E49.53206 ; fill
G1 X114.758 Y84.350 E49.82211 ; fill
G1 X115.226 Y84.818 E49.83911 ; fill
G1 X115.226 Y95.182 E50.10511 ; fill
G1 X115.695 Y94.713 E50.12211 ; fill
G1 X115.695 Y85.287 E50.36406 ; fill
G1 X116.163 Y85.755 E50.38106 ; fill
G1 X116.163 Y94.245 E50.59896 ; fill
G1 X116.632 Y93.776 E50.61596 ; fill
G1 X116.632 Y86.224 E50.80981 ; fill
G1 X117.100 Y86.692 E50.82682 ; fill
G1 X117.100 Y93.308 E50.99661 ; fill
G1 X117.569 Y92.839 E51.01362 ; fill
G1 X117.569 Y87.161 E51.15937 ; fill
G1 X118.037 Y87.629 E51.17637 ; fill
G1 X118.037 Y92.371 E51.29807 ; fill
G1 X118.506 Y91.902 E51.31508 ; fill
G1 X118.506 Y88.098 E51.41273 ; fill
G1 X118.975 Y88.566 E51.42973 ; fill
G1 X118.975 Y91.434 E51.50333 ; fill
G1 X119.443 Y90.965 E51.52034 ; fill
G1 X119.443 Y89.035 E51.56989 ; fill
G1 X119.912 Y89.503 E51.58689 ; fill
G1 X119.912 Y90.497 E51.61239 ; fill
G1 X120.380 Y90.028 E51.62940 ; fill
G1 X120.380 Y89.972 E51.63085 ; fill
G1 F1440.000 E50.13085 ; retract
