; generated by Slic3r 1.1.7 on 2014-09-12 at 10:41:20

; perimeters extrusion width = 0.50mm
; infill extrusion width = 0.50mm
; solid infill extrusion width = 0.50mm
; top infill extrusion width = 0.50mm

; perimeters extrusion width = 0.50mm
; infill extrusion width = 0.50mm
; solid infill extrusion width = 0.50mm
; top infill extrusion width = 0.50mm

G21 ; set units to millimeters
; START-GCODE

; INIT
M80                                  ; activate build chamber
G4 S2                                ; wait 2 seconds
G90                                  ; use absolute coordinates
G28                                  ; home all axes
G1 F12000                            ; set move speed to suit XY-axes
G92 E0                               ; reset extrusion distance

; PREHEAT BED AND CHAMBER
M104 S70 T2                          ; set recirculating air heater to 70 degree celcius target temperature
G1 Z100                              ; move bed to chamber center for faster heating distant from air flow
M190 S100  ; set bed temperature and wait

; MOVE PRINT HEAD TO FRONT CENTER FOR PRIMING, BED UP
G1 X100 Y-20 F12000                  ; move print head in front of print bed center
G1 Z0.5 F12000                       ; move print bed to 0.5mm nozzle distance

; PRIME RIGHT EXTRUDER
T1                                   ; activate right extruder
M83                                  ; use relative distances for extrusion
M104 S260 T1 ; set right extruder temperature
G1 X105 Y-20 F12000                  ; move print head 5mm right
M109 S260 T1 ; wait for right extruder target temperature to be reached
G4 S5                                ; wait 5 seconds
G1 F30 E7.00000                      ; prime extruder 7mm
G1 F1440.000 E-1.5    ; retract extruder
G1 Y-5 F12000                        ; move print head back over printbed edge
G1 Z0.35 F12000                      ; move print bed to 0.35mm nozzle distance
G1 F1440.000 E1.5     ; compensate extruder retraction
G1 F1440.000 E0.6                    ; extrude 0.6mm for sticking primed extrusion to printbed
G4 S2                                ; wait 2 seconds
M82                                  ; use absolute distances for extrusion

; DEACTIVATE RIGHT EXTRUDER
M104 S0 T1                           ; turn right extruder heater off
G1 Z0.5 F12000                       ; move print bed to 0.5mm nozzle distance
G1 Y0 F12000                         ; move print head back over printbed
G1 X100 F12000                       ; move print head to X center
G1 Y-20 F12000                       ; move print head in front of print bed

; PRIME LEFT EXTRUDER
T0                                   ; activate left extruder
M83                                  ; use relative distances for extrusion
M104 S260 T0 ; set left extruder temperature
G1 X95 Y-20 F12000                   ; move print head 5mm left
M109 S260 T0 ; wait for left extruder target temperature to be reached
G4 S5                                ; wait 5 seconds
G1 F30 E7.00000                      ; prime extruder 7mm
G1 F1440.000 E-1.5    ; retract extruder
G1 Y-5 F12000                        ; move print head back over printbed edge
G1 Z0.35 F12000                      ; move print bed to 0.35mm nozzle distance
G1 F1440.000 E1.5     ; compensate extruder retraction
G1 F1440.000 E0.6                    ; extrude 0.6mm for sticking primed extrusion to printbed
G4 S2                                ; wait 2 seconds
M82                                  ; use absolute distances for extrusion

; /START-GCODE
G90 ; use absolute coordinates
G92 E0 ; reset extrusion distance
M82 ; use absolute distances for extrusion
T0 ; change extruder
G92 E0 ; reset extrusion distance
M109 S260 ; wait for temperature to be reached
M106 S255 ; enable fan
G1 F1440.000 E-1.50000 ; retract
G1 Z0.850 F12000.000 ; move to next layer (0) and lift
G92 E0 ; reset extrusion distance
G1 X32.990 Y42.776 F12000.000 ; move to first skirt point
G1 Z0.350 F12000.000 ; restore layer Z
G1 E1.50000 F1440.000 ; compensate retraction
G1 X35.990 Y40.947 E1.59398 F1200.000 ; skirt
G1 X39.326 Y39.841 E1.68796 ; skirt
G1 X42.500 Y39.513 E1.77330 ; skirt
G1 X82.500 Y39.513 E2.84303 ; skirt
G1 X85.537 Y39.813 E2.92466 ; skirt
G1 X160.537 Y54.813 E4.97012 F1200.000 ; skirt
G1 X163.883 Y55.889 E5.06410 ; skirt
G1 X166.900 Y57.691 E5.15808 ; skirt
G1 X169.433 Y60.127 E5.25207 ; skirt
G1 X171.351 Y63.072 E5.34605 ; skirt
G1 X172.557 Y66.373 E5.44003 ; skirt
G1 X172.987 Y70.000 E5.53772 ; skirt
G1 X172.987 Y110.000 E6.60745 ; skirt
G1 X172.589 Y113.492 E6.70143 ; skirt
G1 X171.413 Y116.803 E6.79541 ; skirt
G1 X169.521 Y119.765 E6.88939 ; skirt
G1 X167.010 Y122.224 E6.98338 ; skirt
G1 X164.010 Y124.053 E7.07736 ; skirt
G1 X160.537 Y125.187 E7.17505 ; skirt
G1 X85.537 Y140.187 E9.22051 ; skirt
G1 X82.500 Y140.487 E9.30213 ; skirt
G1 X42.500 Y140.487 E10.37186 ; skirt
G1 X39.008 Y140.089 E10.46585 ; skirt
G1 X35.697 Y138.913 E10.55983 ; skirt
G1 X32.735 Y137.021 E10.65381 ; skirt
G1 X30.276 Y134.510 E10.74779 ; skirt
G1 X28.447 Y131.510 E10.84178 ; skirt
G1 X27.341 Y128.174 E10.93576 ; skirt
G1 X27.013 Y125.000 E11.02109 ; skirt
G1 X27.013 Y55.000 E12.89312 ; skirt
G1 X27.411 Y51.508 E12.98710 ; skirt
G1 X28.587 Y48.197 E13.08108 ; skirt
G1 X30.479 Y45.235 E13.17507 ; skirt
G1 X32.952 Y42.813 E13.26765 ; skirt
G1 F1440.000 E11.76765 ; retract
G1 Z0.850 F12000.000 ; lift plate during travel
G92 E0 ; reset extrusion distance
G1 X67.763 Y69.763 F12000.000 ; move to first perimeter point
G1 Z0.350 F12000.000 ; restore layer Z
G1 E1.50000 F1440.000 ; compensate retraction
G1 X57.238 Y69.763 E1.78147 F1200.000 ; perimeter
G1 X57.238 Y65.238 E1.90249 ; perimeter
G1 X67.763 Y65.238 E2.18396 ; perimeter
G1 X67.763 Y69.710 E2.30357 ; perimeter
G1 X67.763 Y70.238 F12000.000 ; move to first perimeter point
G1 X67.763 Y74.763 E2.42458 F1200.000 ; perimeter
G1 X57.238 Y74.763 E2.70605 ; perimeter
G1 X57.238 Y70.238 E2.82707 ; perimeter
G1 X67.710 Y70.238 E3.10713 ; perimeter
G1 F1440.000 E1.60713 ; retract
G1 Z0.850 F12000.000 ; lift plate during travel
G92 E0 ; reset extrusion distance
G1 X67.763 Y75.238 F12000.000 ; move to first perimeter point
G1 Z0.350 F12000.000 ; restore layer Z
G1 E1.50000 F1440.000 ; compensate retraction
G1 X67.763 Y79.763 E1.62101 F1200.000 ; perimeter
G1 X57.238 Y79.763 E1.90249 ; perimeter
G1 X57.238 Y75.238 E2.02350 ; perimeter
G1 X67.710 Y75.238 E2.30357 ; perimeter
G1 F1440.000 E0.80357 ; retract
G1 Z0.850 F12000.000 ; lift plate during travel
G92 E0 ; reset extrusion distance
G1 X67.763 Y80.238 F12000.000 ; move to first perimeter point
G1 Z0.350 F12000.000 ; restore layer Z
G1 E1.50000 F1440.000 ; compensate retraction
G1 X67.763 Y84.763 E1.62101 F1200.000 ; perimeter
G1 X57.238 Y84.763 E1.90249 ; perimeter
G1 X57.238 Y80.238 E2.02350 ; perimeter
G1 X67.710 Y80.238 E2.30357 ; perimeter
G1 F1440.000 E0.80357 ; retract
G1 Z0.850 F12000.000 ; lift plate during travel
G92 E0 ; reset extrusion distance
G1 X67.763 Y85.238 F12000.000 ; move to first perimeter point
G1 Z0.350 F12000.000 ; restore layer Z
G1 E1.50000 F1440.000 ; compensate retraction
G1 X67.763 Y89.763 E1.62101 F1200.000 ; perimeter
G1 X57.238 Y89.763 E1.90249 ; perimeter
G1 X57.238 Y85.238 E2.02350 ; perimeter
G1 X67.710 Y85.238 E2.30357 ; perimeter
G1 F1440.000 E0.80357 ; retract
G1 Z0.850 F12000.000 ; lift plate during travel
G92 E0 ; reset extrusion distance
G1 X67.763 Y90.238 F12000.000 ; move to first perimeter point
G1 Z0.350 F12000.000 ; restore layer Z
G1 E1.50000 F1440.000 ; compensate retraction
G1 X67.763 Y94.763 E1.62101 F1200.000 ; perimeter
G1 X57.238 Y94.763 E1.90249 ; perimeter
G1 X57.238 Y90.238 E2.02350 ; perimeter
G1 X67.710 Y90.238 E2.30357 ; perimeter
G1 F1440.000 E0.80357 ; retract
G1 Z0.850 F12000.000 ; lift plate during travel
G92 E0 ; reset extrusion distance
G1 X67.763 Y95.238 F12000.000 ; move to first perimeter point
G1 Z0.350 F12000.000 ; restore layer Z
G1 E1.50000 F1440.000 ; compensate retraction
G1 X67.763 Y99.763 E1.62101 F1200.000 ; perimeter
G1 X57.238 Y99.763 E1.90249 ; perimeter
G1 X57.238 Y95.238 E2.02350 ; perimeter
G1 X67.710 Y95.238 E2.30357 ; perimeter
G1 F1440.000 E0.80357 ; retract
G1 Z0.850 F12000.000 ; lift plate during travel
G92 E0 ; reset extrusion distance
G1 X67.763 Y100.238 F12000.000 ; move to first perimeter point
G1 Z0.350 F12000.000 ; restore layer Z
G1 E1.50000 F1440.000 ; compensate retraction
G1 X67.763 Y104.763 E1.62101 F1200.000 ; perimeter
G1 X57.238 Y104.763 E1.90249 ; perimeter
G1 X57.238 Y100.238 E2.02350 ; perimeter
G1 X67.710 Y100.238 E2.30357 ; perimeter
G1 F1440.000 E0.80357 ; retract
G1 Z0.850 F12000.000 ; lift plate during travel
G92 E0 ; reset extrusion distance
G1 X67.763 Y105.238 F12000.000 ; move to first perimeter point
G1 Z0.350 F12000.000 ; restore layer Z
G1 E1.50000 F1440.000 ; compensate retraction
G1 X67.763 Y109.763 E1.62101 F1200.000 ; perimeter
G1 X57.238 Y109.763 E1.90249 ; perimeter
G1 X57.238 Y105.238 E2.02350 ; perimeter
G1 X67.710 Y105.238 E2.30357 ; perimeter
G1 F1440.000 E0.80357 ; retract
G1 Z0.850 F12000.000 ; lift plate during travel
G92 E0 ; reset extrusion distance
G1 X67.763 Y110.238 F12000.000 ; move to first perimeter point
G1 Z0.350 F12000.000 ; restore layer Z
G1 E1.50000 F1440.000 ; compensate retraction
G1 X67.763 Y114.763 E1.62101 F1200.000 ; perimeter
G1 X57.238 Y114.763 E1.90249 ; perimeter
G1 X57.238 Y110.238 E2.02350 ; perimeter
G1 X67.710 Y110.238 E2.30357 ; perimeter
G1 F1440.000 E0.80357 ; retract
G1 Z0.850 F12000.000 ; lift plate during travel
G92 E0 ; reset extrusion distance
G1 X67.763 Y115.238 F12000.000 ; move to first perimeter point
G1 Z0.350 F12000.000 ; restore layer Z
G1 E1.50000 F1440.000 ; compensate retraction
G1 X57.238 Y115.238 E1.78147 F1200.000 ; perimeter
G1 X57.238 Y124.738 E2.03553 ; perimeter
G1 X42.763 Y124.738 E2.42264 ; perimeter
G1 X42.763 Y55.263 E4.28063 ; perimeter
G1 X57.238 Y55.263 E4.66773 ; perimeter
G1 X57.238 Y64.763 E4.92180 ; perimeter
G1 X67.763 Y64.763 E5.20327 ; perimeter
G1 X67.763 Y55.263 E5.45733 ; perimeter
G1 X82.238 Y55.263 E5.84444 ; perimeter
G1 X82.238 Y124.738 E7.70242 ; perimeter
G1 X67.763 Y124.738 E8.08953 ; perimeter
G1 X67.763 Y115.290 E8.34219 ; perimeter
G1 F1440.000 E6.84219 ; retract
G1 Z0.850 F12000.000 ; lift plate during travel
G92 E0 ; reset extrusion distance
G1 X68.116 Y124.384 F12000.000 ; move to first fill point
G1 Z0.350 F12000.000 ; restore layer Z
G1 E1.50000 F1440.000 ; compensate retraction
G1 X81.884 Y124.384 E1.86821 F1200.000 ; fill
G1 X81.884 Y123.896 E1.88125 ; fill
G1 X68.116 Y123.896 E2.24946 ; fill
G1 X68.116 Y123.409 E2.26250 ; fill
G1 X81.884 Y123.409 E2.63071 ; fill
G1 X81.884 Y122.921 E2.64375 ; fill
G1 X68.116 Y122.921 E3.01196 ; fill
G1 X68.116 Y122.433 E3.02500 ; fill
G1 X81.884 Y122.433 E3.39321 ; fill
G1 X81.884 Y121.946 E3.40625 ; fill
G1 X68.116 Y121.946 E3.77446 ; fill
G1 X68.116 Y121.458 E3.78750 ; fill
G1 X81.884 Y121.458 E4.15571 ; fill
G1 X81.884 Y120.970 E4.16875 ; fill
G1 X68.116 Y120.970 E4.53696 ; fill
G1 X68.116 Y120.482 E4.55000 ; fill
G1 X81.884 Y120.482 E4.91821 ; fill
G1 X81.884 Y119.995 E4.93125 ; fill
G1 X68.116 Y119.995 E5.29946 ; fill
G1 X68.116 Y119.507 E5.31250 ; fill
G1 X81.884 Y119.507 E5.68071 ; fill
G1 X81.884 Y119.019 E5.69376 ; fill
G1 X68.116 Y119.019 E6.06196 ; fill
G1 X68.116 Y118.532 E6.07501 ; fill
G1 X81.884 Y118.532 E6.44321 ; fill
G1 X81.884 Y118.044 E6.45626 ; fill
G1 X68.116 Y118.044 E6.82446 ; fill
G1 X68.116 Y117.556 E6.83751 ; fill
G1 X81.884 Y117.556 E7.20571 ; fill
G1 X81.884 Y117.068 E7.21876 ; fill
G1 X68.116 Y117.068 E7.58696 ; fill
G1 X68.116 Y116.581 E7.60001 ; fill
G1 X81.884 Y116.581 E7.96822 ; fill
G1 X81.884 Y116.093 E7.98126 ; fill
G1 X68.116 Y116.093 E8.34947 ; fill
G1 X68.116 Y115.605 E8.36251 ; fill
G1 X81.884 Y115.605 E8.73072 ; fill
G1 X81.884 Y115.117 E8.74376 ; fill
G1 X68.116 Y115.117 E9.11197 ; fill
G1 X68.116 Y114.630 E9.12501 ; fill
G1 X81.884 Y114.630 E9.49322 ; fill
G1 X81.884 Y114.142 E9.50626 ; fill
G1 X68.116 Y114.142 E9.87447 ; fill
G1 X68.116 Y113.654 E9.88751 ; fill
G1 X81.884 Y113.654 E10.25572 ; fill
G1 X81.884 Y113.167 E10.26876 ; fill
G1 X68.116 Y113.167 E10.63697 ; fill
G1 X68.116 Y112.679 E10.65001 ; fill
G1 X81.884 Y112.679 E11.01822 ; fill
G1 X81.884 Y112.191 E11.03126 ; fill
G1 X68.116 Y112.191 E11.39947 ; fill
G1 X68.116 Y111.703 E11.41251 ; fill
G1 X81.884 Y111.703 E11.78072 ; fill
G1 X81.884 Y111.216 E11.79376 ; fill
G1 X68.116 Y111.216 E12.16197 ; fill
G1 X68.116 Y110.728 E12.17501 ; fill
G1 X81.884 Y110.728 E12.54322 ; fill
G1 X81.884 Y110.240 E12.55626 ; fill
G1 X68.116 Y110.240 E12.92447 ; fill
G1 X68.116 Y109.753 E12.93751 ; fill
G1 X81.884 Y109.753 E13.30572 ; fill
G1 X81.884 Y109.265 E13.31877 ; fill
G1 X68.116 Y109.265 E13.68697 ; fill
G1 X68.116 Y108.777 E13.70002 ; fill
G1 X81.884 Y108.777 E14.06822 ; fill
G1 X81.884 Y108.289 E14.08127 ; fill
G1 X68.116 Y108.289 E14.44947 ; fill
G1 X68.116 Y107.802 E14.46252 ; fill
G1 X81.884 Y107.802 E14.83072 ; fill
G1 X81.884 Y107.314 E14.84377 ; fill
G1 X68.116 Y107.314 E15.21197 ; fill
G1 X68.116 Y106.826 E15.22502 ; fill
G1 X81.884 Y106.826 E15.59322 ; fill
G1 X81.884 Y106.339 E15.60627 ; fill
G1 X68.116 Y106.339 E15.97448 ; fill
G1 X68.116 Y105.851 E15.98752 ; fill
G1 X81.884 Y105.851 E16.35573 ; fill
G1 X81.884 Y105.363 E16.36877 ; fill
G1 X68.116 Y105.363 E16.73698 ; fill
G1 X68.116 Y104.875 E16.75002 ; fill
G1 X81.884 Y104.875 E17.11823 ; fill
G1 X81.884 Y104.388 E17.13127 ; fill
G1 X68.116 Y104.388 E17.49948 ; fill
G1 X68.116 Y103.900 E17.51252 ; fill
G1 X81.884 Y103.900 E17.88073 ; fill
G1 X81.884 Y103.412 E17.89377 ; fill
G1 X68.116 Y103.412 E18.26198 ; fill
G1 X68.116 Y102.925 E18.27502 ; fill
G1 X81.884 Y102.925 E18.64323 ; fill
G1 X81.884 Y102.437 E18.65627 ; fill
G1 X68.116 Y102.437 E19.02448 ; fill
G1 X68.116 Y101.949 E19.03752 ; fill
G1 X81.884 Y101.949 E19.40573 ; fill
G1 X81.884 Y101.461 E19.41877 ; fill
G1 X68.116 Y101.461 E19.78698 ; fill
G1 X68.116 Y100.974 E19.80002 ; fill
G1 X81.884 Y100.974 E20.16823 ; fill
G1 X81.884 Y100.486 E20.18127 ; fill
G1 X68.116 Y100.486 E20.54948 ; fill
G1 X68.116 Y99.998 E20.56252 ; fill
G1 X81.884 Y99.998 E20.93073 ; fill
G1 X81.884 Y99.511 E20.94377 ; fill
G1 X68.116 Y99.511 E21.31198 ; fill
G1 X68.116 Y99.023 E21.32503 ; fill
G1 X81.884 Y99.023 E21.69323 ; fill
G1 X81.884 Y98.535 E21.70628 ; fill
G1 X68.116 Y98.535 E22.07448 ; fill
G1 X68.116 Y98.047 E22.08753 ; fill
G1 X81.884 Y98.047 E22.45573 ; fill
G1 X81.884 Y97.560 E22.46878 ; fill
G1 X68.116 Y97.560 E22.83698 ; fill
G1 X68.116 Y97.072 E22.85003 ; fill
G1 X81.884 Y97.072 E23.21823 ; fill
G1 X81.884 Y96.584 E23.23128 ; fill
G1 X68.116 Y96.584 E23.59948 ; fill
G1 X68.116 Y96.096 E23.61253 ; fill
G1 X81.884 Y96.096 E23.98074 ; fill
G1 X81.884 Y95.609 E23.99378 ; fill
G1 X68.116 Y95.609 E24.36199 ; fill
G1 X68.116 Y95.121 E24.37503 ; fill
G1 X81.884 Y95.121 E24.74324 ; fill
G1 X81.884 Y94.633 E24.75628 ; fill
G1 X68.116 Y94.633 E25.12449 ; fill
G1 X68.116 Y94.146 E25.13753 ; fill
G1 X81.884 Y94.146 E25.50574 ; fill
G1 X81.884 Y93.658 E25.51878 ; fill
G1 X68.116 Y93.658 E25.88699 ; fill
G1 X68.116 Y93.170 E25.90003 ; fill
G1 X81.884 Y93.170 E26.26824 ; fill
G1 X81.884 Y92.682 E26.28128 ; fill
G1 X68.116 Y92.682 E26.64949 ; fill
G1 X68.116 Y92.195 E26.66253 ; fill
G1 X81.884 Y92.195 E27.03074 ; fill
G1 X81.884 Y91.707 E27.04378 ; fill
G1 X68.116 Y91.707 E27.41199 ; fill
G1 X68.116 Y91.219 E27.42503 ; fill
G1 X81.884 Y91.219 E27.79324 ; fill
G1 X81.884 Y90.732 E27.80628 ; fill
G1 X68.116 Y90.732 E28.17449 ; fill
G1 X68.116 Y90.244 E28.18753 ; fill
G1 X81.884 Y90.244 E28.55574 ; fill
G1 X81.884 Y89.756 E28.56878 ; fill
G1 X68.116 Y89.756 E28.93699 ; fill
G1 X68.116 Y89.268 E28.95003 ; fill
G1 X81.884 Y89.268 E29.31824 ; fill
G1 X81.884 Y88.781 E29.33129 ; fill
G1 X68.116 Y88.781 E29.69949 ; fill
G1 X68.116 Y88.293 E29.71254 ; fill
G1 X81.884 Y88.293 E30.08074 ; fill
G1 X81.884 Y87.805 E30.09379 ; fill
G1 X68.116 Y87.805 E30.46199 ; fill
