; generated by Slic3r 1.0.0RC3 on 2014-02-26 at 12:27:29

; layer_height = 0.35
; perimeters = 1
; top_solid_layers = 0
; bottom_solid_layers = 3
; fill_density = 0
; perimeter_speed = 20
; infill_speed = 20
; travel_speed = 200
; nozzle_diameter = 0.35
; filament_diameter = 2.85
; extrusion_multiplier = 1
; perimeters extrusion width = 0.50mm
; infill extrusion width = 0.50mm
; solid infill extrusion width = 0.50mm
; top infill extrusion width = 0.50mm

G21 ; set units to millimeters
; START-GCODE
M80 ; activate build chamber
G4 S2
G28; home all axes
G1 F12000 ; set move speed to suit XY-axes 
G1 Z100 ; move bed to chamber center for faster heating distant from air flow
M104 S70 T2 ; set recirculating air heater to 70 degree celcius target temperature
M190 S100 ; set bed temperature and wait
M104 S260 T0 ; set left extruder temperature
T0 ; set left extruder active
G1 F12000 ; set move speed to suit XY axes
G1 X140 Y213 F12000 ; move print head to XY print center
G1 Y90 F12000 ; move print head to front
G1 Z0.5 F12000 ; move print bed to 0.5mm nozzle distance
M109 S260 T0 ; wait for left extruder temperature to be reached
G4 S5
G92 E0 ; reset extrusion distance
G1 F70 E7.00000 ; prime left extruder 7mm
G92 E0 ; reset extrusion distance
G1 F1440.000 E-1.2; retract
G91
G1 Y20 F12000; move print head 20mm back over printbed edge
G90
G1 Z0.35 F12000; move print bed to 0.35mm nozzle distance
G92 E0 ; reset extrusion distance
G1 F1440.000 E1.2; compensate retraction
G92 E0 ; reset extrusion distance
G1 F1440.000 E0.6; extrude 0.6mm for sticking primed extrusion to printbed
G4 S2
G92 E0 ; reset extrusion distance
; /START-GCODE
G90 ; use absolute coordinates
G92 E0 ; reset extrusion distance
M82 ; use absolute distances for extrusion
M106 S255 ; enable fan
G1 F1440.000 E-1.20000 ; retract
G1 Z1.350 F12000.000 ; move to next layer (0) and lift
G92 E0 ; reset extrusion distance
G1 X140.000 Y192.140 F12000.000 ; move to first perimeter point
G1 Z0.350 F12000.000 ; restore layer Z
G1 E1.20000 F1440.000 ; compensate retraction
G1 X160.860 Y213.000 E1.95715 F780.000 ; perimeter
G1 X140.000 Y233.860 E2.71429 ; perimeter
G1 X119.140 Y213.000 E3.47144 ; perimeter
G1 X139.950 Y192.190 E4.22678 ; perimeter
G1 X160.380 Y213.000 F12000.000 ; move to first fill point
G1 X140.000 Y192.620 E4.97392 F780.000 ; fill
G1 X139.666 Y192.954 E4.98617 ; fill
G1 X160.046 Y213.334 E5.73330 ; fill
G1 X159.712 Y213.668 E5.74555 ; fill
G1 X139.332 Y193.288 E6.49268 ; fill
G1 X138.998 Y193.622 E6.50493 ; fill
G1 X159.378 Y214.002 E7.25207 ; fill
G1 X159.044 Y214.336 E7.26431 ; fill
G1 X138.664 Y193.956 E8.01145 ; fill
G1 X138.330 Y194.290 E8.02370 ; fill
G1 X158.710 Y214.670 E8.77083 ; fill
G1 X158.375 Y215.005 E8.78308 ; fill
G1 X137.995 Y194.625 E9.53021 ; fill
G1 X137.661 Y194.959 E9.54246 ; fill
G1 X158.041 Y215.339 E10.28960 ; fill
G1 X157.707 Y215.673 E10.30184 ; fill
G1 X137.327 Y195.293 E11.04898 ; fill
G1 X136.993 Y195.627 E11.06123 ; fill
G1 X157.373 Y216.007 E11.80836 ; fill
G1 X157.039 Y216.341 E11.82061 ; fill
G1 X136.659 Y195.961 E12.56774 ; fill
G1 X136.325 Y196.295 E12.57999 ; fill
G1 X156.705 Y216.675 E13.32713 ; fill
G1 X156.371 Y217.009 E13.33938 ; fill
G1 X135.991 Y196.629 E14.08651 ; fill
G1 X135.657 Y196.963 E14.09876 ; fill
G1 X156.037 Y217.343 E14.84589 ; fill
G1 X155.703 Y217.677 E14.85814 ; fill
G1 X135.323 Y197.297 E15.60528 ; fill
G1 X134.989 Y197.631 E15.61752 ; fill
G1 X155.369 Y218.011 E16.36466 ; fill
G1 X155.034 Y218.346 E16.37691 ; fill
G1 X134.654 Y197.966 E17.12404 ; fill
G1 X134.320 Y198.300 E17.13629 ; fill
G1 X154.700 Y218.680 E17.88342 ; fill
G1 X154.366 Y219.014 E17.89567 ; fill
G1 X133.986 Y198.634 E18.64281 ; fill
G1 X133.652 Y198.968 E18.65505 ; fill
G1 X154.032 Y219.348 E19.40219 ; fill
G1 X153.698 Y219.682 E19.41444 ; fill
G1 X133.318 Y199.302 E20.16157 ; fill
G1 X132.984 Y199.636 E20.17382 ; fill
G1 X153.364 Y220.016 E20.92095 ; fill
G1 X153.030 Y220.350 E20.93320 ; fill
G1 X132.650 Y199.970 E21.68034 ; fill
G1 X132.316 Y200.304 E21.69258 ; fill
G1 X152.696 Y220.684 E22.43972 ; fill
G1 X152.362 Y221.018 E22.45197 ; fill
G1 X131.982 Y200.638 E23.19910 ; fill
G1 X131.648 Y200.972 E23.21135 ; fill
G1 X152.028 Y221.352 E23.95848 ; fill
G1 X151.693 Y221.687 E23.97073 ; fill
G1 X131.313 Y201.307 E24.71787 ; fill
G1 X130.979 Y201.641 E24.73012 ; fill
G1 X151.359 Y222.021 E25.47725 ; fill
G1 X151.025 Y222.355 E25.48950 ; fill
G1 X130.645 Y201.975 E26.23663 ; fill
G1 X130.311 Y202.309 E26.24888 ; fill
G1 X150.691 Y222.689 E26.99602 ; fill
G1 X150.357 Y223.023 E27.00826 ; fill
G1 X129.977 Y202.643 E27.75540 ; fill
G1 X129.643 Y202.977 E27.76765 ; fill
G1 X150.023 Y223.357 E28.51478 ; fill
G1 X149.689 Y223.691 E28.52703 ; fill
G1 X129.309 Y203.311 E29.27416 ; fill
G1 X128.975 Y203.645 E29.28641 ; fill
G1 X149.355 Y224.025 E30.03355 ; fill
G1 X149.021 Y224.359 E30.04579 ; fill
G1 X128.641 Y203.979 E30.79293 ; fill
G1 X128.307 Y204.313 E30.80518 ; fill
G1 X148.687 Y224.693 E31.55231 ; fill
G1 X148.352 Y225.028 E31.56456 ; fill
G1 X127.972 Y204.648 E32.31169 ; fill
G1 X127.638 Y204.982 E32.32394 ; fill
G1 X148.018 Y225.362 E33.07108 ; fill
G1 X147.684 Y225.696 E33.08332 ; fill
G1 X127.304 Y205.316 E33.83046 ; fill
G1 X126.970 Y205.650 E33.84271 ; fill
G1 X147.350 Y226.030 E34.58984 ; fill
G1 X147.016 Y226.364 E34.60209 ; fill
G1 X126.636 Y205.984 E35.34922 ; fill
G1 X126.302 Y206.318 E35.36147 ; fill
G1 X146.682 Y226.698 E36.10861 ; fill
G1 X146.348 Y227.032 E36.12086 ; fill
G1 X125.968 Y206.652 E36.86799 ; fill
G1 X125.634 Y206.986 E36.88024 ; fill
G1 X146.014 Y227.366 E37.62737 ; fill
G1 X145.680 Y227.700 E37.63962 ; fill
G1 X125.300 Y207.320 E38.38676 ; fill
G1 X124.966 Y207.654 E38.39900 ; fill
G1 X145.346 Y228.034 E39.14614 ; fill
G1 X145.011 Y228.369 E39.15839 ; fill
G1 X124.631 Y207.989 E39.90552 ; fill
G1 X124.297 Y208.323 E39.91777 ; fill
G1 X144.677 Y228.703 E40.66490 ; fill
G1 X144.343 Y229.037 E40.67715 ; fill
G1 X123.963 Y208.657 E41.42429 ; fill
G1 X123.629 Y208.991 E41.43653 ; fill
G1 X144.009 Y229.371 E42.18367 ; fill
G1 X143.675 Y229.705 E42.19592 ; fill
G1 X123.295 Y209.325 E42.94305 ; fill
G1 X122.961 Y209.659 E42.95530 ; fill
G1 X143.341 Y230.039 E43.70243 ; fill
G1 X143.007 Y230.373 E43.71468 ; fill
G1 X122.627 Y209.993 E44.46182 ; fill
G1 X122.293 Y210.327 E44.47407 ; fill
G1 X142.673 Y230.707 E45.22120 ; fill
G1 X142.339 Y231.041 E45.23345 ; fill
G1 X121.959 Y210.661 E45.98058 ; fill
G1 X121.625 Y210.995 E45.99283 ; fill
G1 X142.005 Y231.375 E46.73996 ; fill
G1 X141.670 Y231.710 E46.75221 ; fill
G1 X121.290 Y211.330 E47.49935 ; fill
G1 X120.956 Y211.664 E47.51160 ; fill
G1 X141.336 Y232.044 E48.25873 ; fill
G1 X141.002 Y232.378 E48.27098 ; fill
G1 X120.622 Y211.998 E49.01811 ; fill
G1 X120.288 Y212.332 E49.03036 ; fill
G1 X140.668 Y232.712 E49.77750 ; fill
G1 X140.334 Y233.046 E49.78974 ; fill
G1 X119.954 Y212.666 E50.53688 ; fill
G1 X119.620 Y213.000 E50.54913 ; fill
G1 X140.000 Y233.380 E51.29626 ; fill
G1 F1440.000 E50.09626 ; retract
G1 Z1.700 F12000.000 ; move to next layer (1) and lift
G92 E0 ; reset extrusion distance
G1 X140.000 Y233.860 F12000.000 ; move to first perimeter point
G1 Z0.700 F12000.000 ; restore layer Z
G1 E1.20000 F1440.000 ; compensate retraction
G1 X119.140 Y213.000 E1.95715 F1200 ; perimeter
G1 X140.000 Y192.140 E2.71429 ; perimeter
G1 X160.860 Y213.000 E3.47144 ; perimeter
G1 X140.050 Y233.810 E4.22678 ; perimeter
G1 X160.380 Y213.000 F12000.000 ; move to first fill point
G1 X140.000 Y233.380 E4.97392 F1200 ; fill
G1 X139.666 Y233.046 E4.98617 ; fill
G1 X160.046 Y212.666 E5.73330 ; fill
G1 X159.712 Y212.332 E5.74555 ; fill
G1 X139.332 Y232.712 E6.49268 ; fill
G1 X138.998 Y232.378 E6.50493 ; fill
G1 X159.378 Y211.998 E7.25207 ; fill
G1 X159.044 Y211.664 E7.26431 ; fill
G1 X138.664 Y232.044 E8.01145 ; fill
G1 X138.330 Y231.710 E8.02370 ; fill
G1 X158.710 Y211.330 E8.77083 ; fill
G1 X158.375 Y210.995 E8.78308 ; fill
G1 X137.995 Y231.375 E9.53021 ; fill
G1 X137.661 Y231.041 E9.54246 ; fill
G1 X158.041 Y210.661 E10.28960 ; fill
G1 X157.707 Y210.327 E10.30184 ; fill
G1 X137.327 Y230.707 E11.04898 ; fill
G1 X136.993 Y230.373 E11.06123 ; fill
G1 X157.373 Y209.993 E11.80836 ; fill
G1 X157.039 Y209.659 E11.82061 ; fill
G1 X136.659 Y230.039 E12.56774 ; fill
G1 X136.325 Y229.705 E12.57999 ; fill
G1 X156.705 Y209.325 E13.32713 ; fill
G1 X156.371 Y208.991 E13.33938 ; fill
G1 X135.991 Y229.371 E14.08651 ; fill
G1 X135.657 Y229.037 E14.09876 ; fill
G1 X156.037 Y208.657 E14.84589 ; fill
G1 X155.703 Y208.323 E14.85814 ; fill
G1 X135.323 Y228.703 E15.60528 ; fill
G1 X134.989 Y228.369 E15.61752 ; fill
G1 X155.369 Y207.989 E16.36466 ; fill
G1 X155.034 Y207.654 E16.37691 ; fill
G1 X134.654 Y228.034 E17.12404 ; fill
G1 X134.320 Y227.700 E17.13629 ; fill
G1 X154.700 Y207.320 E17.88342 ; fill
G1 X154.366 Y206.986 E17.89567 ; fill
G1 X133.986 Y227.366 E18.64281 ; fill
G1 X133.652 Y227.032 E18.65505 ; fill
G1 X154.032 Y206.652 E19.40219 ; fill
G1 X153.698 Y206.318 E19.41444 ; fill
G1 X133.318 Y226.698 E20.16157 ; fill
G1 X132.984 Y226.364 E20.17382 ; fill
G1 X153.364 Y205.984 E20.92095 ; fill
G1 X153.030 Y205.650 E20.93320 ; fill
G1 X132.650 Y226.030 E21.68034 ; fill
G1 X132.316 Y225.696 E21.69259 ; fill
G1 X152.696 Y205.316 E22.43972 ; fill
G1 X152.362 Y204.982 E22.45197 ; fill
G1 X131.982 Y225.362 E23.19910 ; fill
G1 X131.648 Y225.028 E23.21135 ; fill
G1 X152.028 Y204.648 E23.95849 ; fill
G1 X151.693 Y204.313 E23.97073 ; fill
G1 X131.313 Y224.693 E24.71787 ; fill
G1 X130.979 Y224.359 E24.73012 ; fill
G1 X151.359 Y203.979 E25.47725 ; fill
G1 X151.025 Y203.645 E25.48950 ; fill
G1 X130.645 Y224.025 E26.23663 ; fill
G1 X130.311 Y223.691 E26.24888 ; fill
G1 X150.691 Y203.311 E26.99602 ; fill
G1 X150.357 Y202.977 E27.00826 ; fill
G1 X129.977 Y223.357 E27.75540 ; fill
G1 X129.643 Y223.023 E27.76765 ; fill
G1 X150.023 Y202.643 E28.51478 ; fill
G1 X149.689 Y202.309 E28.52703 ; fill
G1 X129.309 Y222.689 E29.27416 ; fill
G1 X128.975 Y222.355 E29.28641 ; fill
G1 X149.355 Y201.975 E30.03355 ; fill
G1 X149.021 Y201.641 E30.04579 ; fill
G1 X128.641 Y222.021 E30.79293 ; fill
G1 X128.307 Y221.687 E30.80518 ; fill
G1 X148.687 Y201.307 E31.55231 ; fill
G1 X148.352 Y200.972 E31.56456 ; fill
G1 X127.972 Y221.352 E32.31169 ; fill
G1 X127.638 Y221.018 E32.32394 ; fill
G1 X148.018 Y200.638 E33.07108 ; fill
G1 X147.684 Y200.304 E33.08333 ; fill
G1 X127.304 Y220.684 E33.83046 ; fill
G1 X126.970 Y220.350 E33.84271 ; fill
G1 X147.350 Y199.970 E34.58984 ; fill
G1 X147.016 Y199.636 E34.60209 ; fill
G1 X126.636 Y220.016 E35.34923 ; fill
G1 X126.302 Y219.682 E35.36147 ; fill
G1 X146.682 Y199.302 E36.10861 ; fill
G1 X146.348 Y198.968 E36.12086 ; fill
G1 X125.968 Y219.348 E36.86799 ; fill
G1 X125.634 Y219.014 E36.88024 ; fill
G1 X146.014 Y198.634 E37.62737 ; fill
G1 X145.680 Y198.300 E37.63962 ; fill
G1 X125.300 Y218.680 E38.38676 ; fill
G1 X124.966 Y218.346 E38.39900 ; fill
G1 X145.346 Y197.966 E39.14614 ; fill
G1 X145.011 Y197.631 E39.15839 ; fill
G1 X124.631 Y218.011 E39.90552 ; fill
G1 X124.297 Y217.677 E39.91777 ; fill
G1 X144.677 Y197.297 E40.66490 ; fill
G1 X144.343 Y196.963 E40.67715 ; fill
G1 X123.963 Y217.343 E41.42429 ; fill
G1 X123.629 Y217.009 E41.43654 ; fill
G1 X144.009 Y196.629 E42.18367 ; fill
G1 X143.675 Y196.295 E42.19592 ; fill
G1 X123.295 Y216.675 E42.94305 ; fill
G1 X122.961 Y216.341 E42.95530 ; fill
G1 X143.341 Y195.961 E43.70244 ; fill
G1 X143.007 Y195.627 E43.71468 ; fill
G1 X122.627 Y216.007 E44.46182 ; fill
G1 X122.293 Y215.673 E44.47407 ; fill
G1 X142.673 Y195.293 E45.22120 ; fill
G1 X142.339 Y194.959 E45.23345 ; fill
G1 X121.959 Y215.339 E45.98058 ; fill
G1 X121.625 Y215.005 E45.99283 ; fill
G1 X142.005 Y194.625 E46.73997 ; fill
G1 X141.670 Y194.290 E46.75221 ; fill
G1 X121.290 Y214.670 E47.49935 ; fill
G1 X120.956 Y214.336 E47.51160 ; fill
G1 X141.336 Y193.956 E48.25873 ; fill
G1 X141.002 Y193.622 E48.27098 ; fill
G1 X120.622 Y214.002 E49.01811 ; fill
G1 X120.288 Y213.668 E49.03036 ; fill
G1 X140.668 Y193.288 E49.77750 ; fill
G1 X140.334 Y192.954 E49.78975 ; fill
G1 X119.954 Y213.334 E50.53688 ; fill
G1 X119.620 Y213.000 E50.54913 ; fill
G1 X140.000 Y192.620 E51.29626 ; fill
G1 F1440.000 E50.09626 ; retract
G1 Z2.050 F12000.000 ; move to next layer (2) and lift
G92 E0 ; reset extrusion distance
G1 X140.000 Y192.140 F12000.000 ; move to first perimeter point
G1 Z1.050 F12000.000 ; restore layer Z
G1 E1.20000 F1440.000 ; compensate retraction
G1 X160.860 Y213.000 E1.95715 F1200 ; perimeter
G1 X140.000 Y233.860 E2.71429 ; perimeter
G1 X119.140 Y213.000 E3.47144 ; perimeter
G1 X139.950 Y192.190 E4.22678 ; perimeter
G1 X160.380 Y213.000 F12000.000 ; move to first fill point
G1 X140.000 Y192.620 E4.97392 F1200 ; fill
G1 X139.666 Y192.954 E4.98617 ; fill
G1 X160.046 Y213.334 E5.73330 ; fill
G1 X159.712 Y213.668 E5.74555 ; fill
G1 X139.332 Y193.288 E6.49268 ; fill
G1 X138.998 Y193.622 E6.50493 ; fill
G1 X159.378 Y214.002 E7.25207 ; fill
G1 X159.044 Y214.336 E7.26431 ; fill
G1 X138.664 Y193.956 E8.01145 ; fill
G1 X138.330 Y194.290 E8.02370 ; fill
G1 X158.710 Y214.670 E8.77083 ; fill
G1 X158.375 Y215.005 E8.78308 ; fill
G1 X137.995 Y194.625 E9.53021 ; fill
G1 X137.661 Y194.959 E9.54246 ; fill
G1 X158.041 Y215.339 E10.28960 ; fill
G1 X157.707 Y215.673 E10.30184 ; fill
G1 X137.327 Y195.293 E11.04898 ; fill
G1 X136.993 Y195.627 E11.06123 ; fill
G1 X157.373 Y216.007 E11.80836 ; fill
G1 X157.039 Y216.341 E11.82061 ; fill
G1 X136.659 Y195.961 E12.56774 ; fill
G1 X136.325 Y196.295 E12.57999 ; fill
G1 X156.705 Y216.675 E13.32713 ; fill
G1 X156.371 Y217.009 E13.33938 ; fill
G1 X135.991 Y196.629 E14.08651 ; fill
G1 X135.657 Y196.963 E14.09876 ; fill
G1 X156.037 Y217.343 E14.84589 ; fill
G1 X155.703 Y217.677 E14.85814 ; fill
G1 X135.323 Y197.297 E15.60528 ; fill
G1 X134.989 Y197.631 E15.61752 ; fill
G1 X155.369 Y218.011 E16.36466 ; fill
G1 X155.034 Y218.346 E16.37691 ; fill
G1 X134.654 Y197.966 E17.12404 ; fill
G1 X134.320 Y198.300 E17.13629 ; fill
G1 X154.700 Y218.680 E17.88342 ; fill
G1 X154.366 Y219.014 E17.89567 ; fill
G1 X133.986 Y198.634 E18.64281 ; fill
G1 X133.652 Y198.968 E18.65505 ; fill
G1 X154.032 Y219.348 E19.40219 ; fill
G1 X153.698 Y219.682 E19.41444 ; fill
G1 X133.318 Y199.302 E20.16157 ; fill
G1 X132.984 Y199.636 E20.17382 ; fill
G1 X153.364 Y220.016 E20.92095 ; fill
G1 X153.030 Y220.350 E20.93320 ; fill
G1 X132.650 Y199.970 E21.68034 ; fill
G1 X132.316 Y200.304 E21.69259 ; fill
G1 X152.696 Y220.684 E22.43972 ; fill
G1 X152.362 Y221.018 E22.45197 ; fill
G1 X131.982 Y200.638 E23.19910 ; fill
G1 X131.648 Y200.972 E23.21135 ; fill
G1 X152.028 Y221.352 E23.95849 ; fill
G1 X151.693 Y221.687 E23.97073 ; fill
G1 X131.313 Y201.307 E24.71787 ; fill
G1 X130.979 Y201.641 E24.73012 ; fill
G1 X151.359 Y222.021 E25.47725 ; fill
G1 X151.025 Y222.355 E25.48950 ; fill
G1 X130.645 Y201.975 E26.23663 ; fill
G1 X130.311 Y202.309 E26.24888 ; fill
G1 X150.691 Y222.689 E26.99602 ; fill
G1 X150.357 Y223.023 E27.00826 ; fill
G1 X129.977 Y202.643 E27.75540 ; fill
G1 X129.643 Y202.977 E27.76765 ; fill
G1 X150.023 Y223.357 E28.51478 ; fill
G1 X149.689 Y223.691 E28.52703 ; fill
G1 X129.309 Y203.311 E29.27416 ; fill
G1 X128.975 Y203.645 E29.28641 ; fill
G1 X149.355 Y224.025 E30.03355 ; fill
G1 X149.021 Y224.359 E30.04579 ; fill
G1 X128.641 Y203.979 E30.79293 ; fill
G1 X128.307 Y204.313 E30.80518 ; fill
G1 X148.687 Y224.693 E31.55231 ; fill
G1 X148.352 Y225.028 E31.56456 ; fill
G1 X127.972 Y204.648 E32.31169 ; fill
G1 X127.638 Y204.982 E32.32394 ; fill
G1 X148.018 Y225.362 E33.07108 ; fill
G1 X147.684 Y225.696 E33.08333 ; fill
G1 X127.304 Y205.316 E33.83046 ; fill
G1 X126.970 Y205.650 E33.84271 ; fill
G1 X147.350 Y226.030 E34.58984 ; fill
G1 X147.016 Y226.364 E34.60209 ; fill
G1 X126.636 Y205.984 E35.34923 ; fill
G1 X126.302 Y206.318 E35.36147 ; fill
G1 X146.682 Y226.698 E36.10861 ; fill
G1 X146.348 Y227.032 E36.12086 ; fill
G1 X125.968 Y206.652 E36.86799 ; fill
G1 X125.634 Y206.986 E36.88024 ; fill
G1 X146.014 Y227.366 E37.62737 ; fill
G1 X145.680 Y227.700 E37.63962 ; fill
