; generated by Slic3r 1.0.0RC3 on 2014-02-26 at 12:21:28

; layer_height = 0.35
; perimeters = 1
; top_solid_layers = 1
; bottom_solid_layers = 1
; fill_density = 1
; perimeter_speed = 20
; infill_speed = 20
; travel_speed = 200
; nozzle_diameter = 0.35
; filament_diameter = 2.85
; extrusion_multiplier = 1
; perimeters extrusion width = 0.50mm
; infill extrusion width = 0.50mm
; solid infill extrusion width = 0.50mm
; top infill extrusion width = 0.50mm

G21 ; set units to millimeters
; START-GCODE
M80 ; activate build chamber
G4 S2
G28; home all axes
G1 F12000 ; set move speed to suit XY-axes 
G1 Z100 ; move bed to chamber center for faster heating distant from air flow
M104 S70 T2 ; set recirculating air heater to 70 degree celcius target temperature
M190 S100 ; set bed temperature and wait
M104 S260 T0 ; set left extruder temperature
M104 S260 T1 ; set right extruder temperature
T1 ; set right extruder active
G1 F12000 ; set move speed to suit XY axes
G1 X140 Y213 F12000 ; move print head to XY print center
G1 Y90 F12000 ; move print head to front
G91
G1 X5 F12000 ; move print head 5mm right from center for priming right extruder
G90
G1 Z0.5 F12000 ; move print bed to 0.5mm nozzle distance
M109 S260 T1 ; wait for right extruder temperature to be reached
G4 S5
G92 E0 ; reset extrusion distance
G1 F70 E7.00000 ; prime right extruder 7mm
G92 E0 ; reset extrusion distance
G1 F1440.000 E-1.2; retract
G91
G1 Y20 F12000; move print head 20mm back over printbed edge
G90
G1 Z0.35 F12000; move print bed to 0.35mm nozzle distance
G92 E0 ; reset extrusion distance
G1 F1440.000 E1.2; compensate retraction
G92 E0 ; reset extrusion distance
G1 F1440.000 E0.6; extrude 0.6mm for sticking primed extrusion to printbed
M104 S0 T1 ; set right extruder temperature to zero
G4 S5
G1 Z0.5 F12000 ; move print bed to 0.5mm nozzle distance
G91
G1 Y20 F12000; move print head 20mm further back over printbed to wipe primed extrusion
G90
G1 X140 F12000 ; move print head to X print center
G1 Y90 F12000 ; move print head to front
T0 ; set left extruder active
G91
G1 X-5 F12000 ; move print head 5mm left from center for priming left extruder
G90
M109 S260 T0 ; wait for left extruder temperature to be reached
G4 S5
G92 E0 ; reset extrusion distance
G1 F70 E7.00000 ; prime left extruder 7mm
G92 E0 ; reset extrusion distance
G1 F1440.000 E-1.2; retract
G91
G1 Y20 F12000; move print head 20mm back over printbed edge
G90
G1 Z0.35 F12000; move print bed to 0.35mm nozzle distance
G92 E0 ; reset extrusion distance
G1 F1440.000 E1.2; compensate retraction
G92 E0 ; reset extrusion distance
G1 F1440.000 E0.6; extrude 0.6mm for sticking primed extrusion to printbed
G4 S2
G92 E0 ; reset extrusion distance
; /START-GCODE
G90 ; use absolute coordinates
G92 E0 ; reset extrusion distance
M82 ; use absolute distances for extrusion
T0 ; change extruder
G92 E0 ; reset extrusion distance
M109 S260 ; wait for temperature to be reached
M106 S255 ; enable fan
G1 F1440.000 E-1.20000 ; retract
G1 Z1.350 F12000.000 ; move to next layer (0) and lift
G92 E0 ; reset extrusion distance
G1 X77.750 Y168.670 F12000.000 ; move to first skirt point
G1 Z0.350 F12000.000 ; restore layer Z
G1 E1.20000 F1440.000 ; compensate retraction
G1 X79.270 Y168.040 E1.24223 F1200.000 ; skirt
G1 X80.860 Y167.660 E1.28419 ; skirt
G1 X82.500 Y167.530 E1.32641 ; skirt
G1 X122.500 Y167.530 E2.35305 ; skirt
G1 X123.530 Y167.580 E2.37952 ; skirt
G1 X124.550 Y167.740 E2.40602 ; skirt
G1 X199.550 Y182.740 E4.36909 ; skirt
G1 X201.090 Y183.170 E4.41012 ; skirt
G1 X202.540 Y183.830 E4.45101 ; skirt
G1 X203.880 Y184.700 E4.49202 ; skirt
G1 X205.070 Y185.770 E4.53309 ; skirt
G1 X206.080 Y187.000 E4.57394 ; skirt
G1 X206.890 Y188.370 E4.61479 ; skirt
G1 X207.480 Y189.850 E4.65568 ; skirt
G1 X207.850 Y191.410 E4.69683 ; skirt
G1 X207.970 Y193.000 E4.73776 ; skirt
G1 X207.970 Y233.000 E5.76440 ; skirt
G1 X207.850 Y234.590 E5.80532 ; skirt
G1 X207.480 Y236.150 E5.84647 ; skirt
G1 X206.890 Y237.630 E5.88736 ; skirt
G1 X206.080 Y239.000 E5.92821 ; skirt
G1 X205.070 Y240.230 E5.96906 ; skirt
G1 X203.880 Y241.300 E6.01013 ; skirt
G1 X202.540 Y242.170 E6.05114 ; skirt
G1 X201.090 Y242.830 E6.09203 ; skirt
G1 X199.550 Y243.260 E6.13307 ; skirt
G1 X124.550 Y258.260 E8.09614 ; skirt
G1 X123.530 Y258.420 E8.12264 ; skirt
G1 X122.500 Y258.470 E8.14910 ; skirt
G1 X82.500 Y258.470 E9.17574 ; skirt
G1 X80.860 Y258.340 E9.21797 ; skirt
G1 X79.270 Y257.960 E9.25992 ; skirt
G1 X77.750 Y257.330 E9.30215 ; skirt
G1 X76.350 Y256.470 E9.34432 ; skirt
G1 X75.100 Y255.400 E9.38656 ; skirt
G1 X74.030 Y254.150 E9.42879 ; skirt
G1 X73.170 Y252.750 E9.47096 ; skirt
G1 X72.540 Y251.230 E9.51319 ; skirt
G1 X72.160 Y249.640 E9.55515 ; skirt
G1 X72.030 Y248.000 E9.59737 ; skirt
G1 X72.030 Y178.000 E11.39399 ; skirt
G1 X72.160 Y176.360 E11.43621 ; skirt
G1 X72.540 Y174.770 E11.47817 ; skirt
G1 X73.170 Y173.250 E11.52040 ; skirt
G1 X74.030 Y171.850 E11.56257 ; skirt
G1 X75.100 Y170.600 E11.60480 ; skirt
G1 X76.350 Y169.530 E11.64703 ; skirt
G1 X77.690 Y168.707 E11.68740 ; skirt
G1 F1440.000 E10.48740 ; retract
G1 Z1.350 F12000.000 ; lift plate during travel
G92 E0 ; reset extrusion distance
G1 X97.250 Y188.250 F12000.000 ; move to first perimeter point
G1 Z0.350 F12000.000 ; restore layer Z
G1 E1.20000 F1440.000 ; compensate retraction
G1 X107.750 Y188.250 E1.46949 F1200.000 ; perimeter
G1 X107.750 Y192.750 E1.58499 ; perimeter
G1 X97.250 Y192.750 E1.85448 ; perimeter
G1 X97.250 Y188.320 E1.96818 ; perimeter
G1 F1440.000 E0.76818 ; retract
G1 Z1.350 F12000.000 ; lift plate during travel
G92 E0 ; reset extrusion distance
G1 X97.250 Y193.250 F12000.000 ; move to first perimeter point
G1 Z0.350 F12000.000 ; restore layer Z
G1 E1.20000 F1440.000 ; compensate retraction
G1 X107.750 Y193.250 E1.46949 F1200.000 ; perimeter
G1 X107.750 Y197.750 E1.58499 ; perimeter
G1 X97.250 Y197.750 E1.85448 ; perimeter
G1 X97.250 Y193.320 E1.96818 ; perimeter
G1 F1440.000 E0.76818 ; retract
G1 Z1.350 F12000.000 ; lift plate during travel
G92 E0 ; reset extrusion distance
G1 X97.250 Y198.250 F12000.000 ; move to first perimeter point
G1 Z0.350 F12000.000 ; restore layer Z
G1 E1.20000 F1440.000 ; compensate retraction
G1 X107.750 Y198.250 E1.46949 F1200.000 ; perimeter
G1 X107.750 Y202.750 E1.58499 ; perimeter
G1 X97.250 Y202.750 E1.85448 ; perimeter
G1 X97.250 Y198.320 E1.96818 ; perimeter
G1 F1440.000 E0.76818 ; retract
G1 Z1.350 F12000.000 ; lift plate during travel
G92 E0 ; reset extrusion distance
G1 X97.250 Y203.250 F12000.000 ; move to first perimeter point
G1 Z0.350 F12000.000 ; restore layer Z
G1 E1.20000 F1440.000 ; compensate retraction
G1 X107.750 Y203.250 E1.46949 F1200.000 ; perimeter
G1 X107.750 Y207.750 E1.58499 ; perimeter
G1 X97.250 Y207.750 E1.85448 ; perimeter
G1 X97.250 Y203.320 E1.96818 ; perimeter
G1 F1440.000 E0.76818 ; retract
G1 Z1.350 F12000.000 ; lift plate during travel
G92 E0 ; reset extrusion distance
G1 X97.250 Y208.250 F12000.000 ; move to first perimeter point
G1 Z0.350 F12000.000 ; restore layer Z
G1 E1.20000 F1440.000 ; compensate retraction
G1 X107.750 Y208.250 E1.46949 F1200.000 ; perimeter
G1 X107.750 Y212.750 E1.58499 ; perimeter
G1 X97.250 Y212.750 E1.85448 ; perimeter
G1 X97.250 Y208.320 E1.96818 ; perimeter
G1 F1440.000 E0.76818 ; retract
G1 Z1.350 F12000.000 ; lift plate during travel
G92 E0 ; reset extrusion distance
G1 X97.250 Y213.250 F12000.000 ; move to first perimeter point
G1 Z0.350 F12000.000 ; restore layer Z
G1 E1.20000 F1440.000 ; compensate retraction
G1 X107.750 Y213.250 E1.46949 F1200.000 ; perimeter
G1 X107.750 Y217.750 E1.58499 ; perimeter
G1 X97.250 Y217.750 E1.85448 ; perimeter
G1 X97.250 Y213.320 E1.96818 ; perimeter
G1 F1440.000 E0.76818 ; retract
G1 Z1.350 F12000.000 ; lift plate during travel
G92 E0 ; reset extrusion distance
G1 X97.250 Y218.250 F12000.000 ; move to first perimeter point
G1 Z0.350 F12000.000 ; restore layer Z
G1 E1.20000 F1440.000 ; compensate retraction
G1 X107.750 Y218.250 E1.46949 F1200.000 ; perimeter
G1 X107.750 Y222.750 E1.58499 ; perimeter
G1 X97.250 Y222.750 E1.85448 ; perimeter
G1 X97.250 Y218.320 E1.96818 ; perimeter
G1 F1440.000 E0.76818 ; retract
G1 Z1.350 F12000.000 ; lift plate during travel
G92 E0 ; reset extrusion distance
G1 X97.250 Y223.250 F12000.000 ; move to first perimeter point
G1 Z0.350 F12000.000 ; restore layer Z
G1 E1.20000 F1440.000 ; compensate retraction
G1 X107.750 Y223.250 E1.46949 F1200.000 ; perimeter
G1 X107.750 Y227.750 E1.58499 ; perimeter
G1 X97.250 Y227.750 E1.85448 ; perimeter
G1 X97.250 Y223.320 E1.96818 ; perimeter
G1 F1440.000 E0.76818 ; retract
G1 Z1.350 F12000.000 ; lift plate during travel
G92 E0 ; reset extrusion distance
G1 X97.250 Y228.250 F12000.000 ; move to first perimeter point
G1 Z0.350 F12000.000 ; restore layer Z
G1 E1.20000 F1440.000 ; compensate retraction
G1 X107.750 Y228.250 E1.46949 F1200.000 ; perimeter
G1 X107.750 Y232.750 E1.58499 ; perimeter
G1 X97.250 Y232.750 E1.85448 ; perimeter
G1 X97.250 Y228.320 E1.96818 ; perimeter
G1 F1440.000 E0.76818 ; retract
G1 Z1.350 F12000.000 ; lift plate during travel
G92 E0 ; reset extrusion distance
G1 X97.250 Y233.250 F12000.000 ; move to first perimeter point
G1 Z0.350 F12000.000 ; restore layer Z
G1 E1.20000 F1440.000 ; compensate retraction
G1 X107.750 Y233.250 E1.46949 F1200.000 ; perimeter
G1 X107.750 Y237.750 E1.58499 ; perimeter
G1 X97.250 Y237.750 E1.85448 ; perimeter
G1 X97.250 Y233.320 E1.96818 ; perimeter
G1 F1440.000 E0.76818 ; retract
G1 Z1.350 F12000.000 ; lift plate during travel
G92 E0 ; reset extrusion distance
G1 X97.250 Y238.250 F12000.000 ; move to first perimeter point
G1 Z0.350 F12000.000 ; restore layer Z
G1 E1.20000 F1440.000 ; compensate retraction
G1 X97.250 Y247.750 E1.44383 F1200.000 ; perimeter
G1 X82.750 Y247.750 E1.81598 ; perimeter
G1 X82.750 Y178.250 E3.59977 ; perimeter
G1 X97.250 Y178.250 E3.97192 ; perimeter
G1 X97.250 Y187.750 E4.21575 ; perimeter
G1 X107.750 Y187.750 E4.48524 ; perimeter
G1 X107.750 Y178.250 E4.72907 ; perimeter
G1 X122.250 Y178.250 E5.10123 ; perimeter
G1 X122.250 Y247.750 E6.88501 ; perimeter
G1 X107.750 Y247.750 E7.25717 ; perimeter
G1 X107.750 Y238.250 E7.50100 ; perimeter
G1 X97.320 Y238.250 E7.76869 ; perimeter
G1 F1440.000 E6.56869 ; retract
G1 Z1.350 F12000.000 ; lift plate during travel
G92 E0 ; reset extrusion distance
G1 X182.750 Y218.250 F12000.000 ; move to first perimeter point
G1 Z0.350 F12000.000 ; restore layer Z
G1 E1.20000 F1440.000 ; compensate retraction
G1 X182.750 Y207.750 E1.46949 F1200.000 ; perimeter
G1 X187.250 Y207.750 E1.58499 ; perimeter
G1 X187.250 Y218.250 E1.85448 ; perimeter
G1 X182.820 Y218.250 E1.96818 ; perimeter
G1 X182.250 Y218.250 F12000.000 ; move to first perimeter point
G1 X177.750 Y218.250 E2.08368 F1200.000 ; perimeter
G1 X177.750 Y207.750 E2.35317 ; perimeter
G1 X182.250 Y207.750 E2.46866 ; perimeter
G1 X182.250 Y218.180 E2.73636 ; perimeter
G1 F1440.000 E1.53636 ; retract
G1 Z1.350 F12000.000 ; lift plate during travel
G92 E0 ; reset extrusion distance
G1 X177.250 Y218.250 F12000.000 ; move to first perimeter point
G1 Z0.350 F12000.000 ; restore layer Z
G1 E1.20000 F1440.000 ; compensate retraction
G1 X172.750 Y218.250 E1.31550 F1200.000 ; perimeter
G1 X172.750 Y207.750 E1.58499 ; perimeter
G1 X177.250 Y207.750 E1.70049 ; perimeter
G1 X177.250 Y218.180 E1.96818 ; perimeter
G1 F1440.000 E0.76818 ; retract
G1 Z1.350 F12000.000 ; lift plate during travel
G92 E0 ; reset extrusion distance
G1 X172.250 Y218.250 F12000.000 ; move to first perimeter point
G1 Z0.350 F12000.000 ; restore layer Z
G1 E1.20000 F1440.000 ; compensate retraction
G1 X167.750 Y218.250 E1.31550 F1200.000 ; perimeter
G1 X167.750 Y207.750 E1.58499 ; perimeter
G1 X172.250 Y207.750 E1.70049 ; perimeter
G1 X172.250 Y218.180 E1.96818 ; perimeter
G1 F1440.000 E0.76818 ; retract
G1 Z1.350 F12000.000 ; lift plate during travel
G92 E0 ; reset extrusion distance
G1 X167.250 Y218.250 F12000.000 ; move to first perimeter point
G1 Z0.350 F12000.000 ; restore layer Z
G1 E1.20000 F1440.000 ; compensate retraction
G1 X162.750 Y218.250 E1.31550 F1200.000 ; perimeter
G1 X162.750 Y207.750 E1.58499 ; perimeter
G1 X167.250 Y207.750 E1.70049 ; perimeter
G1 X167.250 Y218.180 E1.96818 ; perimeter
G1 F1440.000 E0.76818 ; retract
G1 Z1.350 F12000.000 ; lift plate during travel
G92 E0 ; reset extrusion distance
G1 X162.250 Y218.250 F12000.000 ; move to first perimeter point
G1 Z0.350 F12000.000 ; restore layer Z
G1 E1.20000 F1440.000 ; compensate retraction
G1 X157.750 Y218.250 E1.31550 F1200.000 ; perimeter
G1 X157.750 Y207.750 E1.58499 ; perimeter
G1 X162.250 Y207.750 E1.70049 ; perimeter
G1 X162.250 Y218.180 E1.96818 ; perimeter
G1 F1440.000 E0.76818 ; retract
G1 Z1.350 F12000.000 ; lift plate during travel
G92 E0 ; reset extrusion distance
G1 X157.250 Y218.250 F12000.000 ; move to first perimeter point
G1 Z0.350 F12000.000 ; restore layer Z
G1 E1.20000 F1440.000 ; compensate retraction
G1 X152.750 Y218.250 E1.31550 F1200.000 ; perimeter
G1 X152.750 Y207.750 E1.58499 ; perimeter
G1 X157.250 Y207.750 E1.70049 ; perimeter
G1 X157.250 Y218.180 E1.96818 ; perimeter
G1 F1440.000 E0.76818 ; retract
G1 Z1.350 F12000.000 ; lift plate during travel
G92 E0 ; reset extrusion distance
G1 X152.250 Y218.250 F12000.000 ; move to first perimeter point
G1 Z0.350 F12000.000 ; restore layer Z
G1 E1.20000 F1440.000 ; compensate retraction
G1 X147.750 Y218.250 E1.31550 F1200.000 ; perimeter
G1 X147.750 Y207.750 E1.58499 ; perimeter
G1 X152.250 Y207.750 E1.70049 ; perimeter
G1 X152.250 Y218.180 E1.96818 ; perimeter
G1 F1440.000 E0.76818 ; retract
G1 Z1.350 F12000.000 ; lift plate during travel
G92 E0 ; reset extrusion distance
G1 X147.250 Y218.250 F12000.000 ; move to first perimeter point
G1 Z0.350 F12000.000 ; restore layer Z
G1 E1.20000 F1440.000 ; compensate retraction
G1 X142.750 Y218.250 E1.31550 F1200.000 ; perimeter
G1 X142.750 Y207.750 E1.58499 ; perimeter
G1 X147.250 Y207.750 E1.70049 ; perimeter
G1 X147.250 Y218.180 E1.96818 ; perimeter
G1 F1440.000 E0.76818 ; retract
G1 Z1.350 F12000.000 ; lift plate during travel
G92 E0 ; reset extrusion distance
G1 X142.250 Y218.250 F12000.000 ; move to first perimeter point
G1 Z0.350 F12000.000 ; restore layer Z
G1 E1.20000 F1440.000 ; compensate retraction
G1 X137.750 Y218.250 E1.31550 F1200.000 ; perimeter
G1 X137.750 Y207.750 E1.58499 ; perimeter
G1 X142.250 Y207.750 E1.70049 ; perimeter
G1 X142.250 Y218.180 E1.96818 ; perimeter
G1 F1440.000 E0.76818 ; retract
G1 Z1.350 F12000.000 ; lift plate during travel
G92 E0 ; reset extrusion distance
G1 X137.250 Y218.250 F12000.000 ; move to first perimeter point
G1 Z0.350 F12000.000 ; restore layer Z
G1 E1.20000 F1440.000 ; compensate retraction
G1 X137.250 Y207.750 E1.46949 F1200.000 ; perimeter
G1 X127.750 Y207.750 E1.71332 ; perimeter
G1 X127.750 Y193.250 E2.08548 ; perimeter
G1 X197.250 Y193.250 E3.86926 ; perimeter
G1 X197.250 Y207.750 E4.24142 ; perimeter
G1 X187.750 Y207.750 E4.48524 ; perimeter
G1 X187.750 Y218.250 E4.75474 ; perimeter
G1 X197.250 Y218.250 E4.99856 ; perimeter
G1 X197.250 Y232.750 E5.37072 ; perimeter
G1 X127.750 Y232.750 E7.15451 ; perimeter
G1 X127.750 Y218.250 E7.52666 ; perimeter
G1 X137.180 Y218.250 E7.76869 ; perimeter
G1 F1440.000 E6.56869 ; retract
G1 Z1.350 F12000.000 ; lift plate during travel
G92 E0 ; reset extrusion distance
G1 X96.667 Y178.579 F12000.000 ; move to first fill point
G1 Z0.350 F12000.000 ; restore layer Z
G1 E1.20000 F1440.000 ; compensate retraction
G1 X96.687 Y178.599 E1.20072 F1200.000 ; fill
G1 X96.687 Y179.262 E1.21776 ; fill
G1 X96.004 Y178.579 E1.24258 ; fill
G1 X95.342 Y178.579 E1.25962 ; fill
G1 X96.687 Y179.924 E1.30853 ; fill
G1 X96.687 Y180.587 E1.32557 ; fill
G1 X94.679 Y178.579 E1.39858 ; fill
G1 X94.016 Y178.579 E1.41561 ; fill
G1 X96.687 Y181.250 E1.51272 ; fill
G1 X96.687 Y181.913 E1.52976 ; fill
G1 X93.354 Y178.579 E1.65095 ; fill
G1 X92.691 Y178.579 E1.66799 ; fill
G1 X96.687 Y182.575 E1.81329 ; fill
G1 X96.687 Y183.238 E1.83033 ; fill
G1 X92.028 Y178.579 E1.99971 ; fill
